; generated by PrusaSlicer 2.5.0+MacOS-arm64 on 2023-03-31 at 09:07:30 UTC

; 

; external perimeters extrusion width = 0.68mm
; perimeters extrusion width = 0.68mm
; infill extrusion width = 0.68mm
; solid infill extrusion width = 0.68mm
; top infill extrusion width = 0.60mm

M201 X1000 Y1000 Z1000 E5000 ; sets maximum accelerations, mm/sec^2
M203 X200 Y200 Z12 E120 ; sets maximum feedrates, mm / sec
M204 P1250 R1250 T1250 ; sets acceleration (P, T) and retract acceleration (R), mm/sec^2
M205 X8.00 Y8.00 Z0.40 E1.50 ; sets the jerk limits, mm/sec
M205 S0 T0 ; sets the minimum extruding and travel feed rate, mm/sec
M107
;TYPE:Custom
; Initial setups
G90 ; use absolute coordinates
M83 ; extruder relative mode
M220 S100 ; reset speed factor to 100%
M221 S100 ; reset extrusion rate to 100%

; Set the heating
M190 S65 ; wait for bed to heat up
M104 S210 ; start nozzle heating but don't wait

; Home
G1 Z3 F3000 ; move z up little to prevent scratching of surface
G28 ; home all axes
G1 X3 Y3 F5000 ; move to corner of the bed to avoid ooze over centre

; Wait for final heating
M109 S210 ; wait for the nozzle to heat up
M190 S65 ; wait for the bed to heat up

G92 E0 ; Reset Extruder
M221 S95
G21 ; set units to millimeters
G90 ; use absolute coordinates
M83 ; use relative distances for extrusion
; Filament gcode
M107
;LAYER_CHANGE
;Z:0.3
;HEIGHT:0.3
;BEFORE_LAYER_CHANGE
;0.3
G92 E0
G1 E-1.9 F2100
G1 Z.6 F7800
;AFTER_LAYER_CHANGE
;0.3
G1 X151.615 Y155.072
G1 Z.3
G1 E1.9 F2100
;TYPE:Perimeter
;WIDTH:0.675
G1 F900
G1 X152.001 Y154.933 E.03129
G1 X152.667 Y154.615 E.05621
G1 X153.265 Y154.213 E.05488
G1 X154.009 Y153.513 E.07782
G1 X154.398 Y153.004 E.04873
G1 X154.633 Y152.614 E.03473
G1 X154.922 Y152.046 E.04848
G1 X155.152 Y151.367 E.05461
G1 X155.234 Y150.948 E.03253
G1 X161.914 Y150.948 E.50878
G1 X161.573 Y151.524 E.05098
G1 X160.747 Y152.65 E.10635
G1 X160.412 Y153.03 E.03857
G1 X160.049 Y153.398 E.03935
G1 X159.645 Y153.769 E.04177
G1 X158.97 Y154.298 E.06537
G1 X158.532 Y154.592 E.04018
G1 X158.062 Y154.863 E.04129
G1 X157.386 Y155.193 E.05727
G1 X156.753 Y155.435 E.0516
G1 X156.215 Y155.595 E.04278
G1 X155.67 Y155.715 E.04247
G1 X155.156 Y155.787 E.03958
G1 X154.623 Y155.82 E.04067
G1 X153.776 Y155.783 E.06452
G1 X153.267 Y155.701 E.0393
G1 X152.381 Y155.449 E.07016
G1 X151.695 Y155.112 E.05815
;WIPE_START
G1 F6240
G1 X152.001 Y154.933 E-.11326
G1 X152.667 Y154.615 E-.23595
G1 X153.265 Y154.213 E-.23039
G1 X154.009 Y153.513 E-.3267
G1 X154.398 Y153.004 E-.20457
G1 X154.633 Y152.614 E-.1458
G1 X154.922 Y152.046 E-.20352
G1 X155.152 Y151.367 E-.22925
G1 X155.221 Y151.013 E-.11557
;WIPE_END
G1 E-.095 F2100
G1 Z.9 F7800
G1 X150.216 Y154.71
G1 Z.3
G1 E1.9 F2100
;TYPE:External perimeter
G1 F900
G1 X150.885 Y154.638 E.05125
G1 X151.628 Y154.432 E.05866
G1 X152.123 Y154.206 E.04145
G1 X152.685 Y153.867 E.05
G1 X153.112 Y153.536 E.04114
G1 X153.524 Y153.142 E.04345
G1 X153.913 Y152.633 E.04873
G1 X154.344 Y151.851 E.06806
G1 X154.586 Y151.123 E.05839
G1 X154.709 Y150.338 E.06056
G1 X162.662 Y150.338 E.60574
G1 X162.769 Y150.616 E.02269
G1 X162.43 Y151.28 E.05674
G1 X162.094 Y151.845 E.05009
G1 X161.515 Y152.671 E.07686
G1 X160.858 Y153.446 E.07737
G1 X160.5 Y153.812 E.03902
G1 X160.082 Y154.199 E.04335
G1 X159.691 Y154.523 E.03871
G1 X159.281 Y154.828 E.03885
G1 X158.855 Y155.11 E.03892
G1 X158.417 Y155.368 E.03877
G1 X157.801 Y155.675 E.0524
G1 X157.305 Y155.886 E.04103
G1 X156.81 Y156.061 E.03996
G1 X156.304 Y156.203 E.04003
G1 X155.795 Y156.313 E.0397
G1 X155.277 Y156.387 E.03986
G1 X154.761 Y156.427 E.03935
G1 X154.243 Y156.427 E.03952
G1 X153.73 Y156.392 E.03911
G1 X153.173 Y156.307 E.04296
G1 X152.666 Y156.187 E.03962
G1 X152.179 Y156.027 E.03908
G1 X151.699 Y155.812 E.04006
G1 X151.251 Y155.564 E.03899
G1 X150.646 Y155.13 E.05673
G1 X150.281 Y154.773 E.03889
G1 X150.809 Y154.805 F7800
;WIPE_START
G1 F6240
G1 X150.885 Y154.638 E-.19811
G1 X151.628 Y154.432 E-.24627
G1 X152.123 Y154.206 E-.17401
G1 X152.685 Y153.867 E-.2099
G1 X153.112 Y153.536 E-.1727
G1 X153.524 Y153.142 E-.1824
G1 X153.913 Y152.633 E-.20457
G1 X154.344 Y151.851 E-.28571
G1 X154.473 Y151.461 E-.13133
;WIPE_END
G1 E-.095 F2100
G1 Z.9 F7800
G1 X160.328 Y151.131
G1 Z.3
G1 E1.9 F2100
;TYPE:Solid infill
;WIDTH:0.711561
G1 F900
G1 X160.891 Y151.694 E.06426
G1 X160.504 Y152.222 E.05286
G1 X159.688 Y151.406 E.0932
G1 X158.773 Y151.406 E.07388
G1 X160.072 Y152.706 E.14835
G1 X159.621 Y153.17 E.05225
G1 X157.857 Y151.406 E.20134
G1 X156.942 Y151.406 E.07388
G1 X159.127 Y153.591 E.24947
G1 X158.611 Y153.99 E.05267
G1 X156.027 Y151.406 E.29497
G1 X155.613 Y151.406 E.03343
G1 X155.493 Y151.788 E.03228
G1 X158.05 Y154.344 E.29184
G1 X157.448 Y154.657 E.05478
G1 X155.24 Y152.449 E.25204
G1 X154.92 Y153.045 E.05456
G1 X156.806 Y154.931 E.21533
G1 X156.416 Y155.066 E.03331
G1 X156.109 Y155.149 E.02571
G1 X154.534 Y153.574 E.17977
G1 X154.327 Y153.849 E.02774
G1 X154.104 Y154.059 E.02478
G1 X155.345 Y155.3 E.14168
G1 X155.11 Y155.331 E.01913
G1 X154.49 Y155.361 E.05007
G1 X153.633 Y154.503 E.09791
G1 X153.094 Y154.88 E.05306
G1 X153.816 Y155.602 E.0825
M106 S127.5
;LAYER_CHANGE
;Z:0.6
;HEIGHT:0.3
;BEFORE_LAYER_CHANGE
;0.6
G92 E0
;WIPE_START
G1 F6240
G1 X153.094 Y154.88 E-.32676
G1 X153.633 Y154.503 E-.21015
G1 X154.49 Y155.361 E-.38779
G1 X155.11 Y155.331 E-.19831
G1 X155.345 Y155.3 E-.07576
G1 X154.104 Y154.059 E-.56117
G1 X154.206 Y153.962 E-.04505
;WIPE_END
G1 E-.095 F2100
G1 Z.9 F7800
;AFTER_LAYER_CHANGE
;0.6
M104 S205 ; set temperature
M140 S60 ; set bed temperature
G1 X151.114 Y155.203
G1 Z.6
G1 E1.9 F2100
;TYPE:Perimeter
;WIDTH:0.675
G1 F900
G1 X151.726 Y155.03 E.04842
G1 X152.283 Y154.817 E.04544
G1 X152.903 Y154.471 E.05407
G1 X153.316 Y154.157 E.03947
G1 X153.733 Y153.802 E.04169
G1 X154.208 Y153.275 E.05405
G1 X154.506 Y152.825 E.04113
G1 X154.769 Y152.372 E.03991
G1 X155.072 Y151.641 E.06025
G1 X155.244 Y150.948 E.05436
G1 X161.723 Y150.948 E.49346
G1 X161.993 Y151.741 E.06382
G1 X161.712 Y152.176 E.03941
G1 X161.136 Y152.924 E.07188
G1 X160.483 Y153.634 E.07346
G1 X160.02 Y154.07 E.04842
G1 X159.37 Y154.589 E.06337
G1 X158.936 Y154.888 E.04015
G1 X158.476 Y155.164 E.04088
G1 X157.959 Y155.434 E.04443
G1 X157.492 Y155.649 E.03912
G1 X156.796 Y155.904 E.0565
G1 X156.298 Y156.04 E.0393
G1 X155.475 Y156.198 E.06381
G1 X154.968 Y156.25 E.03882
G1 X154.445 Y156.261 E.03984
G1 X153.929 Y156.238 E.03932
G1 X153.25 Y156.133 E.05235
G1 X152.748 Y156.014 E.03924
G1 X152.136 Y155.77 E.05023
G1 X151.675 Y155.547 E.03899
G1 X151.191 Y155.25 E.04326
;WIPE_START
G1 F6240
G1 X151.726 Y155.03 E-.18496
G1 X152.283 Y154.817 E-.19077
G1 X152.903 Y154.471 E-.227
G1 X153.316 Y154.157 E-.16567
G1 X153.733 Y153.802 E-.17499
G1 X154.208 Y153.275 E-.2269
G1 X154.506 Y152.825 E-.17267
G1 X154.769 Y152.372 E-.16753
G1 X155.072 Y151.641 E-.25291
G1 X155.103 Y151.515 E-.04159
;WIPE_END
G1 E-.095 F2100
G1 Z1.2 F7800
G1 X149.783 Y154.713
G1 Z.6
G1 E1.9 F2100
;TYPE:External perimeter
G1 F900
G1 X150.504 Y154.694 E.05494
G1 X151.252 Y154.552 E.05793
G1 X151.985 Y154.284 E.05952
G1 X152.647 Y153.91 E.05786
G1 X153.279 Y153.393 E.06221
G1 X153.81 Y152.777 E.06191
G1 X154.209 Y152.13 E.05792
G1 X154.479 Y151.493 E.05265
G1 X154.656 Y150.781 E.05588
G1 X154.697 Y150.338 E.03394
G1 X162.143 Y150.338 E.56711
G1 X162.478 Y151.245 E.07364
G1 X162.652 Y151.845 E.04758
G1 X162.232 Y152.501 E.05934
G1 X161.641 Y153.277 E.07426
G1 X160.959 Y154.024 E.07703
G1 X160.523 Y154.439 E.04583
G1 X160.088 Y154.811 E.04361
G1 X159.686 Y155.116 E.03842
G1 X159.267 Y155.401 E.03863
G1 X158.832 Y155.666 E.03876
G1 X157.825 Y156.176 E.08596
G1 X157.068 Y156.461 E.06161
G1 X156.584 Y156.6 E.0384
G1 X156.008 Y156.736 E.04506
G1 X155.455 Y156.816 E.04253
G1 X154.84 Y156.868 E.047
G1 X154.33 Y156.867 E.03884
G1 X153.772 Y156.832 E.04261
G1 X152.982 Y156.699 E.06103
G1 X152.473 Y156.562 E.04012
G1 X151.839 Y156.305 E.05212
G1 X151.115 Y155.923 E.06231
G1 X150.637 Y155.612 E.04342
G1 X150.087 Y155.117 E.05635
G1 X149.837 Y154.785 E.03166
G1 X150.364 Y154.863 F7800
;WIPE_START
G1 F6240
G1 X150.504 Y154.694 E-.2152
G1 X151.252 Y154.552 E-.24318
G1 X151.985 Y154.284 E-.24986
G1 X152.647 Y153.91 E-.24288
G1 X153.279 Y153.393 E-.26115
G1 X153.81 Y152.777 E-.25991
G1 X154.209 Y152.13 E-.24313
G1 X154.318 Y151.871 E-.08969
;WIPE_END
G1 E-.095 F2100
G1 Z1.2 F7800
G1 X158.498 Y154.94
G1 Z.6
G1 E1.9 F2100
;TYPE:Solid infill
;WIDTH:0.721613
G1 F900
G1 X160.54 Y152.898 E.23677
G1 X160.82 Y152.591 E.03402
G1 X161.355 Y151.888 E.07243
G1 X161.492 Y151.674 E.02085
G1 X161.403 Y151.406 E.02316
G1 X161.102 Y151.406 E.02466
G1 X157.263 Y155.246 E.44512
G1 X156.734 Y155.445 E.04636
G1 X155.923 Y155.655 E.0686
G1 X160.173 Y151.406 E.49262
G1 X159.243 Y151.406 E.07619
G1 X154.851 Y155.798 E.5092
G1 X153.943 Y155.777 E.07444
G1 X158.314 Y151.406 E.50669
G1 X157.384 Y151.406 E.07619
G1 X153.15 Y155.64 E.49088
G1 X152.888 Y155.577 E.02211
G1 X152.456 Y155.405 E.03809
G1 X156.73 Y151.131 E.4954
M106 S255
;LAYER_CHANGE
;Z:0.9
;HEIGHT:0.3
;BEFORE_LAYER_CHANGE
;0.9
G92 E0
;WIPE_START
G1 F6240
G1 X152.738 Y155.123 E-1.805
;WIPE_END
G1 E-.095 F2100
G1 Z1.2 F7800
;AFTER_LAYER_CHANGE
;0.9
G1 X150.622 Y155.289
G1 Z.9
G1 E1.9 F2100
;TYPE:Perimeter
;WIDTH:0.675
G1 F900
G1 X151.471 Y155.123 E.0659
G1 X152.15 Y154.877 E.05499
G1 X152.634 Y154.62 E.04174
G1 X153.085 Y154.343 E.04027
G1 X153.725 Y153.81 E.06347
G1 X154.325 Y153.106 E.07042
G1 X154.743 Y152.432 E.0604
G1 X155.071 Y151.642 E.06514
G1 X155.243 Y150.948 E.05447
G1 X161.226 Y150.948 E.45564
G1 X161.573 Y152.085 E.09052
G1 X161.764 Y152.904 E.06403
G1 X161.543 Y153.179 E.02688
G1 X160.937 Y153.851 E.0689
G1 X160.389 Y154.373 E.05766
G1 X159.388 Y155.151 E.09654
G1 X158.942 Y155.435 E.04029
G1 X158.23 Y155.824 E.06176
G1 X157.306 Y156.213 E.07635
G1 X156.759 Y156.393 E.04388
G1 X156.172 Y156.546 E.04617
G1 X155.676 Y156.627 E.03833
G1 X154.743 Y156.704 E.07127
G1 X154.231 Y156.686 E.039
G1 X153.715 Y156.628 E.03952
G1 X153.204 Y156.556 E.03934
G1 X152.651 Y156.428 E.04321
G1 X152.173 Y156.25 E.03887
G1 X151.637 Y156.003 E.04494
G1 X151.157 Y155.716 E.0426
G1 X150.692 Y155.345 E.04525
;WIPE_START
G1 F6240
G1 X151.471 Y155.123 E-.25895
G1 X152.15 Y154.877 E-.23086
G1 X152.634 Y154.62 E-.17523
G1 X153.085 Y154.343 E-.16906
G1 X153.725 Y153.81 E-.26643
G1 X154.325 Y153.106 E-.29562
G1 X154.743 Y152.432 E-.25357
G1 X154.929 Y151.984 E-.15526
;WIPE_END
G1 E-.095 F2100
G1 Z1.5 F7800
G1 X149.308 Y154.662
G1 Z.9
G1 E1.9 F2100
;TYPE:External perimeter
G1 F900
G1 X149.859 Y154.712 E.04212
G1 X150.466 Y154.697 E.0462
G1 X151.182 Y154.568 E.05545
G1 X151.622 Y154.419 E.03534
G1 X152.104 Y154.217 E.03982
G1 X152.703 Y153.866 E.05292
G1 X153.273 Y153.401 E.05598
G1 X153.811 Y152.776 E.06283
G1 X154.183 Y152.19 E.05282
G1 X154.478 Y151.495 E.05752
G1 X154.657 Y150.774 E.05657
G1 X154.697 Y150.338 E.0334
G1 X161.637 Y150.338 E.52854
G1 X161.751 Y150.588 E.02095
G1 X162.035 Y151.459 E.0698
G1 X162.3 Y152.428 E.0765
G1 X162.412 Y153.062 E.04902
G1 X162.085 Y153.489 E.04091
G1 X161.422 Y154.232 E.07588
G1 X160.86 Y154.777 E.05957
G1 X160.166 Y155.342 E.06818
G1 X159.679 Y155.693 E.04575
G1 X159.251 Y155.962 E.03847
G1 X158.496 Y156.374 E.06554
G1 X157.406 Y156.834 E.0901
G1 X156.3 Y157.144 E.08747
G1 X155.802 Y157.226 E.03839
G1 X155.294 Y157.289 E.03904
G1 X154.684 Y157.316 E.04649
G1 X154.111 Y157.287 E.04371
G1 X153.4 Y157.212 E.05441
G1 X152.785 Y157.083 E.04783
G1 X152.296 Y156.956 E.03848
G1 X151.809 Y156.752 E.04021
G1 X151.258 Y156.486 E.04661
G1 X150.785 Y156.2 E.04215
G1 X150.35 Y155.874 E.04138
G1 X149.966 Y155.511 E.04022
G1 X149.363 Y154.734 E.07492
G1 X149.829 Y154.85 F7800
;WIPE_START
G1 F6240
G1 X149.859 Y154.712 E-.15896
G1 X150.466 Y154.697 E-.19396
G1 X151.182 Y154.568 E-.23276
G1 X151.622 Y154.419 E-.14834
G1 X152.104 Y154.217 E-.16716
G1 X152.703 Y153.866 E-.22217
G1 X153.273 Y153.401 E-.235
G1 X153.811 Y152.776 E-.26374
G1 X154.118 Y152.293 E-.18291
;WIPE_END
G1 E-.095 F2100
G1 Z1.5 F7800
G1 X156.318 Y156.318
G1 Z.9
G1 E1.9 F2100
;TYPE:Internal infill
;WIDTH:0.675
G1 F900
G1 X154.09 Y154.09 E.24002
G1 X154.561 Y153.568 E.05355
G1 X155.061 Y152.808 E.06926
G1 X155.15 Y152.644 E.01423
G1 X155.448 Y151.957 E.05706
G1 X155.598 Y151.406 E.04347
G1 X157.163 Y151.406 E.11916
G1 X159.297 Y153.54 E.22981
;WIPE_START
G1 F6240
G1 X157.163 Y151.406 E-.96473
G1 X155.598 Y151.406 E-.50022
G1 X155.448 Y151.957 E-.18248
G1 X155.252 Y152.409 E-.15756
;WIPE_END
G1 E-.095 F2100
G1 Z1.5 F7800
G1 X159.787 Y151.131
G1 Z.9
G1 E1.9 F2100
;TYPE:Solid infill
;WIDTH:0.704572
G1 F900
G1 X161.233 Y152.577 E.16325
G1 X161.277 Y152.779 E.01648
G1 X160.927 Y153.176 E.04229
G1 X159.157 Y151.406 E.19991
G1 X159.048 Y151.406 E.00868
G1 X159.248 Y152.053 E.05407
G1 X159.304 Y152.109 E.00632
G1 X159.408 Y152.563 E.03713
G1 X160.491 Y153.646 E.12233
G1 X160.022 Y154.082 E.05115
G1 X159.343 Y153.403 E.07667
;LAYER_CHANGE
;Z:1.2
;HEIGHT:0.3
;BEFORE_LAYER_CHANGE
;1.2
G92 E0
;WIPE_START
G1 F6240
G1 X160.022 Y154.082 E-.307
G1 X160.491 Y153.646 E-.20482
G1 X159.408 Y152.563 E-.48979
G1 X159.304 Y152.109 E-.14867
G1 X159.248 Y152.053 E-.02531
G1 X159.048 Y151.406 E-.21648
G1 X159.157 Y151.406 E-.03474
G1 X159.993 Y152.243 E-.37819
;WIPE_END
G1 E-.095 F2100
G1 Z1.5 F7800
;AFTER_LAYER_CHANGE
;1.2
G1 X150.138 Y155.33
G1 Z1.2
G1 E1.9 F2100
;TYPE:Perimeter
;WIDTH:0.675
G1 F900
G1 X151.049 Y155.226 E.06985
G1 X151.627 Y155.069 E.04561
G1 X152.167 Y154.858 E.04416
G1 X152.655 Y154.622 E.04126
G1 X153.183 Y154.268 E.04842
G1 X153.615 Y153.902 E.04317
G1 X154.002 Y153.521 E.04129
G1 X154.429 Y152.966 E.05339
G1 X154.672 Y152.533 E.03779
G1 X154.942 Y151.995 E.04587
G1 X155.149 Y151.381 E.04929
G1 X155.232 Y150.948 E.0336
G1 X160.719 Y150.948 E.4179
G1 X161.031 Y151.878 E.07468
G1 X161.273 Y152.884 E.07883
G1 X161.368 Y153.417 E.04122
G1 X161.432 Y154.008 E.04524
G1 X160.889 Y154.56 E.059
G1 X160.052 Y155.259 E.08303
G1 X159.401 Y155.704 E.06007
G1 X158.93 Y155.982 E.04168
G1 X158.29 Y156.319 E.05511
G1 X157.632 Y156.592 E.05421
G1 X157.092 Y156.776 E.04346
G1 X156.454 Y156.955 E.05052
G1 X155.945 Y157.045 E.03934
G1 X155.182 Y157.139 E.05857
G1 X154.555 Y157.142 E.0477
G1 X153.424 Y157.046 E.08649
G1 X152.799 Y156.903 E.04883
G1 X152.22 Y156.708 E.0465
G1 X151.727 Y156.508 E.04055
G1 X151.282 Y156.267 E.03851
G1 X150.84 Y155.977 E.04027
G1 X150.42 Y155.638 E.0411
G1 X150.198 Y155.396 E.02497
;WIPE_START
G1 F6240
G1 X151.049 Y155.226 E-.27726
G1 X151.627 Y155.069 E-.19148
G1 X152.167 Y154.858 E-.18539
G1 X152.655 Y154.622 E-.17322
G1 X153.183 Y154.268 E-.20327
G1 X153.615 Y153.902 E-.18123
G1 X154.002 Y153.521 E-.17334
G1 X154.429 Y152.966 E-.22415
G1 X154.672 Y152.533 E-.15866
G1 X154.724 Y152.429 E-.03701
;WIPE_END
G1 E-.095 F2100
G1 Z1.8 F7800
G1 X148.86 Y154.578
G1 Z1.2
G1 E1.9 F2100
;TYPE:External perimeter
G1 F900
G1 X149.406 Y154.684 E.0424
G1 X150.071 Y154.721 E.05073
G1 X151.004 Y154.606 E.07156
G1 X151.698 Y154.4 E.05512
G1 X152.318 Y154.113 E.05207
G1 X152.971 Y153.669 E.06014
G1 X153.518 Y153.149 E.05743
G1 X153.945 Y152.593 E.05339
G1 X154.132 Y152.248 E.02987
G1 X154.363 Y151.8 E.03846
G1 X154.582 Y151.139 E.05301
G1 X154.709 Y150.338 E.06181
G1 X161.105 Y150.338 E.48712
G1 X161.288 Y150.722 E.03244
G1 X161.565 Y151.493 E.06236
G1 X161.768 Y152.316 E.06461
G1 X161.883 Y152.811 E.03865
G1 X161.974 Y153.342 E.04103
G1 X162.06 Y154.24 E.06874
G1 X161.247 Y155.068 E.08838
G1 X160.571 Y155.629 E.06683
G1 X160.09 Y155.984 E.04557
G1 X159.668 Y156.259 E.03836
G1 X159.226 Y156.516 E.03895
G1 X158.55 Y156.872 E.05821
G1 X157.749 Y157.205 E.06608
G1 X156.72 Y157.515 E.0818
G1 X156.102 Y157.641 E.04804
G1 X154.933 Y157.761 E.08952
G1 X154.386 Y157.752 E.04165
G1 X153.449 Y157.676 E.07159
G1 X152.915 Y157.563 E.04158
G1 X151.763 Y157.201 E.09199
G1 X151.296 Y156.966 E.03975
G1 X150.841 Y156.711 E.03977
G1 X150.214 Y156.29 E.0575
G1 X149.856 Y155.938 E.03819
G1 X149.389 Y155.431 E.05256
G1 X149.099 Y155.021 E.03818
G1 X148.902 Y154.658 E.0315
G1 X149.357 Y154.828 F7800
;WIPE_START
G1 F6240
G1 X149.406 Y154.684 E-.1613
