; generated by PrusaSlicer 2.5.0+MacOS-arm64 on 2023-03-31 at 09:08:40 UTC

; 

; external perimeters extrusion width = 0.68mm
; perimeters extrusion width = 0.68mm
; infill extrusion width = 0.68mm
; solid infill extrusion width = 0.68mm
; top infill extrusion width = 0.60mm

M201 X1000 Y1000 Z1000 E5000 ; sets maximum accelerations, mm/sec^2
M203 X200 Y200 Z12 E120 ; sets maximum feedrates, mm / sec
M204 P1250 R1250 T1250 ; sets acceleration (P, T) and retract acceleration (R), mm/sec^2
M205 X8.00 Y8.00 Z0.40 E1.50 ; sets the jerk limits, mm/sec
M205 S0 T0 ; sets the minimum extruding and travel feed rate, mm/sec
M107
;TYPE:Custom
; Initial setups
G90 ; use absolute coordinates
M83 ; extruder relative mode
M220 S100 ; reset speed factor to 100%
M221 S100 ; reset extrusion rate to 100%

; Set the heating
M190 S65 ; wait for bed to heat up
M104 S210 ; start nozzle heating but don't wait

; Home
G1 Z3 F3000 ; move z up little to prevent scratching of surface
G28 ; home all axes
G1 X3 Y3 F5000 ; move to corner of the bed to avoid ooze over centre

; Wait for final heating
M109 S210 ; wait for the nozzle to heat up
M190 S65 ; wait for the bed to heat up

G92 E0 ; Reset Extruder
M221 S95
G21 ; set units to millimeters
G90 ; use absolute coordinates
M83 ; use relative distances for extrusion
; Filament gcode
M107
;LAYER_CHANGE
;Z:0.3
;HEIGHT:0.3
;BEFORE_LAYER_CHANGE
;0.3
G92 E0
G1 Z.3 F7800
;AFTER_LAYER_CHANGE
;0.3
G1 E-1.9 F2100
G1 Z.9 F7800
G1 X136.707 Y136.685
G1 Z.3
G1 E1.9 F2100
;TYPE:External perimeter
;WIDTH:0.675
G1 F1800
G1 X148.693 Y131.649 E.99016
G1 X149.993 Y131.173 E.10547
G1 X161.995 Y136.078 E.98744
G1 X163.315 Y136.707 E.11133
G1 X168.326 Y148.635 E.98538
G1 X168.817 Y150.016 E.11161
G1 X163.922 Y161.995 E.98559
G1 X163.293 Y163.315 E.11133
G1 X151.365 Y168.326 E.98538
G1 X149.984 Y168.817 E.11161
G1 X138.005 Y163.922 E.98559
G1 X136.685 Y163.293 E.11133
G1 X131.674 Y151.365 E.98538
G1 X131.183 Y149.984 E.11161
G1 X136.078 Y138.005 E.98559
G1 X136.668 Y136.766 E.10448
;WIPE_START
G1 F6240
G1 X141.863 Y134.556 E-1.805
;WIPE_END
G1 E-.095 F2100
G1 Z.9 F7800
G1 X164.078 Y138.996
G1 Z.3
G1 E1.9 F2100
;TYPE:Solid infill
;WIDTH:0.675958
G1 F1800
G1 X161.42 Y136.338 E.28669
G1 X159.958 Y135.74 E.12054
G1 X164.191 Y139.973 E.45664
G1 X164.817 Y141.465 E.1234
G1 X158.495 Y135.143 E.68203
G1 X157.032 Y134.545 E.12054
G1 X165.444 Y142.956 E.90742
G1 X166.07 Y144.448 E.1234
G1 X155.569 Y133.947 E1.13281
G1 X154.107 Y133.349 E.12054
G1 X166.697 Y145.94 E1.3582
G1 X167.324 Y147.431 E.1234
G1 X152.644 Y132.751 E1.58359
G1 X151.181 Y132.153 E.12054
G1 X167.946 Y148.918 E1.80852
G1 X168.251 Y149.731 E.06624
G1 X168.332 Y149.994 E.02093
G1 X168.281 Y150.118 E.01025
G1 X149.869 Y131.706 E1.98617
G1 X149.236 Y131.938 E.05142
G1 X168.03 Y150.732 E2.02739
G1 X167.779 Y151.346 E.05059
G1 X148.613 Y132.18 E2.06755
G1 X148.004 Y132.436 E.05039
G1 X167.528 Y151.96 E2.10618
G1 X167.277 Y152.574 E.05059
G1 X147.395 Y132.692 E2.14482
G1 X146.786 Y132.947 E.05039
G1 X167.026 Y153.188 E2.18345
G1 X166.775 Y153.802 E.05059
G1 X146.177 Y133.203 E2.22208
G1 X145.568 Y133.459 E.05039
G1 X166.524 Y154.416 E2.26071
G1 X166.273 Y155.03 E.05059
G1 X144.959 Y133.715 E2.29934
G1 X144.35 Y133.971 E.05039
G1 X166.023 Y155.644 E2.33797
G1 X165.772 Y156.258 E.05059
G1 X143.741 Y134.227 E2.3766
G1 X143.132 Y134.483 E.05039
G1 X165.521 Y156.872 E2.41523
G1 X165.27 Y157.486 E.05059
G1 X142.523 Y134.738 E2.45386
G1 X141.913 Y134.994 E.05039
G1 X165.019 Y158.1 E2.49249
G1 X164.768 Y158.714 E.05059
G1 X141.304 Y135.25 E2.53112
G1 X140.695 Y135.506 E.05039
G1 X164.517 Y159.328 E2.56975
G1 X164.266 Y159.942 E.05059
G1 X140.086 Y135.762 E2.60838
G1 X139.477 Y136.018 E.05039
G1 X164.015 Y160.556 E2.64702
G1 X163.764 Y161.17 E.05059
G1 X138.868 Y136.274 E2.68565
G1 X138.259 Y136.53 E.05039
G1 X163.513 Y161.784 E2.72428
G1 X163.246 Y162.381 E.04995
G1 X137.65 Y136.785 E2.76118
G1 X137.041 Y137.041 E.05039
G1 X162.959 Y162.959 E2.79586
G1 X162.35 Y163.215 E.05039
G1 X136.754 Y137.619 E2.76118
G1 X136.487 Y138.217 E.04995
G1 X161.741 Y163.471 E2.72427
G1 X161.132 Y163.726 E.05039
G1 X136.236 Y138.831 E2.68564
G1 X135.985 Y139.445 E.05059
G1 X160.523 Y163.982 E2.64701
G1 X159.914 Y164.238 E.05039
G1 X135.734 Y140.058 E2.60838
G1 X135.483 Y140.672 E.05059
G1 X159.305 Y164.494 E2.56975
G1 X158.695 Y164.75 E.05039
G1 X135.232 Y141.286 E2.53112
G1 X134.981 Y141.9 E.05059
G1 X158.086 Y165.006 E2.49249
G1 X157.477 Y165.262 E.05039
G1 X134.73 Y142.514 E2.45386
G1 X134.479 Y143.128 E.05059
G1 X156.868 Y165.517 E2.41523
G1 X156.259 Y165.773 E.05039
G1 X134.228 Y143.742 E2.3766
G1 X133.977 Y144.356 E.05059
G1 X155.65 Y166.029 E2.33796
G1 X155.041 Y166.285 E.05039
G1 X133.727 Y144.97 E2.29933
G1 X133.476 Y145.584 E.05059
G1 X154.432 Y166.541 E2.2607
G1 X153.823 Y166.797 E.05039
G1 X133.225 Y146.198 E2.22207
G1 X132.974 Y146.812 E.05059
G1 X153.214 Y167.053 E2.18344
G1 X152.605 Y167.308 E.05039
G1 X132.723 Y147.426 E2.14481
G1 X132.472 Y148.04 E.05059
G1 X151.996 Y167.564 E2.10618
G1 X151.387 Y167.82 E.05039
G1 X132.221 Y148.654 E2.06755
G1 X131.97 Y149.268 E.05059
G1 X150.766 Y168.064 E2.02766
G1 X150.131 Y168.294 E.05155
G1 X131.719 Y149.882 E1.98616
G1 X131.668 Y150.006 E.01025
G1 X131.749 Y150.269 E.02093
G1 X132.054 Y151.082 E.06625
G1 X148.818 Y167.846 E1.80846
G1 X147.356 Y167.248 E.12053
G1 X132.676 Y152.569 E1.58353
G1 X133.303 Y154.061 E.1234
G1 X145.893 Y166.651 E1.35814
G1 X144.43 Y166.053 E.12053
G1 X133.93 Y155.552 E1.13276
G1 X134.556 Y157.044 E.1234
G1 X142.968 Y165.455 E.90737
G1 X141.505 Y164.857 E.12053
G1 X135.183 Y158.535 E.68199
G1 X135.809 Y160.027 E.1234
G1 X140.042 Y164.259 E.4566
G1 X138.579 Y163.662 E.12053
G1 X135.922 Y161.004 E.28666
M106 S127.5
;LAYER_CHANGE
;Z:0.6
;HEIGHT:0.3
;BEFORE_LAYER_CHANGE
;0.6
G92 E0
G1 Z.6 F7800
;AFTER_LAYER_CHANGE
;0.6
M104 S205 ; set temperature
M140 S60 ; set bed temperature
G1 X135.62 Y161.131
;TYPE:External perimeter
;WIDTH:0.675
G1 F1500
G1 X131.546 Y151.449 E.80006
G1 X131.095 Y150.218 E.09981
G1 X131.045 Y149.941 E.02142
G1 X135.927 Y137.977 E.98414
G1 X136.48 Y136.788 E.09983
G1 X136.64 Y136.557 E.02144
G1 X148.551 Y131.546 E.98417
G1 X149.781 Y131.095 E.09973
G1 X150.061 Y131.045 E.02164
G1 X162.023 Y135.927 E.984
G1 X163.212 Y136.48 E.09983
G1 X163.443 Y136.64 E.02144
G1 X168.454 Y148.551 E.98417
G1 X168.905 Y149.782 E.09981
G1 X168.955 Y150.059 E.02141
G1 X164.073 Y162.023 E.98414
G1 X163.52 Y163.212 E.09983
G1 X163.36 Y163.443 E.02144
G1 X151.449 Y168.454 E.98417
G1 X150.218 Y168.905 E.09981
G1 X149.941 Y168.955 E.02141
G1 X137.977 Y164.073 E.98414
G1 X136.788 Y163.52 E.09983
G1 X136.557 Y163.36 E.02144
G1 X135.655 Y161.214 E.17725
;WIPE_START
G1 F6240
G1 X133.465 Y156.011 E-1.805
;WIPE_END
G1 E-.095 F2100
G1 Z1.2 F7800
G1 X161.347 Y164.095
G1 Z.6
G1 E1.9 F2100
;TYPE:Top solid infill
;WIDTH:0.601401
G1 F3000
G1 X163.756 Y161.686 E.22824
G1 X164.28 Y160.403 E.09282
G1 X160.487 Y164.195 E.35926
G1 X159.176 Y164.747 E.09528
G1 X164.803 Y159.12 E.53305
G1 X165.327 Y157.836 E.09282
G1 X157.865 Y165.299 E.70684
G1 X156.554 Y165.85 E.09528
G1 X165.851 Y156.553 E.88063
G1 X166.374 Y155.27 E.09282
G1 X155.243 Y166.402 E1.05441
G1 X153.932 Y166.954 E.09528
G1 X166.898 Y153.987 E1.2282
G1 X167.421 Y152.704 E.09282
G1 X152.62 Y167.505 E1.40199
G1 X151.309 Y168.057 E.09528
G1 X167.945 Y151.421 E1.57578
G1 X168.468 Y150.138 E.09282
G1 X150.11 Y168.497 E1.73901
G1 X149.998 Y168.524 E.0077
G1 X149.519 Y168.328 E.03466
G1 X168.352 Y149.495 E1.78399
G1 X168.149 Y148.939 E.03965
G1 X148.979 Y168.108 E1.81579
G1 X148.44 Y167.888 E.03902
G1 X167.933 Y148.396 E1.84643
G1 X167.708 Y147.861 E.03884
G1 X147.901 Y167.668 E1.87621
G1 X147.361 Y167.448 E.03902
G1 X167.483 Y147.327 E1.906
G1 X167.258 Y146.792 E.03884
G1 X146.822 Y167.228 E1.93578
G1 X146.283 Y167.008 E.03902
G1 X167.033 Y146.257 E1.96557
G1 X166.808 Y145.723 E.03884
G1 X145.743 Y166.788 E1.99536
G1 X145.204 Y166.568 E.03902
G1 X166.583 Y145.188 E2.02514
G1 X166.358 Y144.654 E.03884
G1 X144.665 Y166.348 E2.05493
G1 X144.125 Y166.128 E.03902
G1 X166.133 Y144.119 E2.08471
G1 X165.909 Y143.585 E.03884
G1 X143.586 Y165.907 E2.1145
G1 X143.046 Y165.687 E.03902
G1 X165.684 Y143.05 E2.14429
G1 X165.459 Y142.516 E.03884
G1 X142.507 Y165.467 E2.17407
G1 X141.968 Y165.247 E.03902
G1 X165.234 Y141.981 E2.20386
G1 X165.009 Y141.447 E.03884
G1 X141.428 Y165.027 E2.23365
G1 X140.889 Y164.807 E.03902
G1 X164.784 Y140.912 E2.26343
G1 X164.559 Y140.377 E.03884
G1 X140.35 Y164.587 E2.29322
G1 X139.81 Y164.367 E.03902
G1 X164.334 Y139.843 E2.323
G1 X164.109 Y139.308 E.03884
G1 X139.271 Y164.147 E2.35279
G1 X138.732 Y163.927 E.03902
G1 X163.884 Y138.774 E2.38258
G1 X163.659 Y138.239 E.03884
G1 X138.192 Y163.706 E2.41236
G1 X137.672 Y163.467 E.03836
G1 X163.434 Y137.705 E2.44034
G1 X163.21 Y137.17 E.03884
G1 X137.153 Y163.226 E2.46815
G1 X136.902 Y163.095 E.019
G1 X136.79 Y162.83 E.01926
G1 X162.847 Y136.774 E2.46815
G1 X162.328 Y136.533 E.0383
G1 X136.566 Y162.295 E2.44034
G1 X136.341 Y161.761 E.03884
G1 X161.808 Y136.294 E2.41236
G1 X161.268 Y136.073 E.03902
G1 X136.116 Y161.226 E2.38258
G1 X135.891 Y160.692 E.03884
G1 X160.729 Y135.853 E2.35279
G1 X160.19 Y135.633 E.03902
G1 X135.666 Y160.157 E2.32301
G1 X135.441 Y159.623 E.03884
G1 X159.65 Y135.413 E2.29323
G1 X159.111 Y135.193 E.03902
G1 X135.216 Y159.088 E2.26344
G1 X134.991 Y158.553 E.03884
G1 X158.572 Y134.973 E2.23366
G1 X158.032 Y134.753 E.03902
G1 X134.766 Y158.019 E2.20388
G1 X134.541 Y157.484 E.03884
G1 X157.493 Y134.533 E2.17409
G1 X156.954 Y134.312 E.03902
G1 X134.316 Y156.95 E2.14431
G1 X134.091 Y156.415 E.03884
G1 X156.414 Y134.092 E2.11452
G1 X155.875 Y133.872 E.03902
G1 X133.867 Y155.881 E2.08474
G1 X133.642 Y155.346 E.03884
G1 X155.336 Y133.652 E2.05496
G1 X154.796 Y133.432 E.03902
G1 X133.417 Y154.812 E2.02517
G1 X133.192 Y154.277 E.03884
G1 X154.257 Y133.212 E1.99539
G1 X153.718 Y132.992 E.03902
G1 X132.967 Y153.743 E1.96561
G1 X132.742 Y153.208 E.03884
G1 X153.178 Y132.772 E1.93582
G1 X152.639 Y132.551 E.03902
G1 X132.517 Y152.673 E1.90604
G1 X132.292 Y152.139 E.03884
G1 X152.1 Y132.331 E1.87626
G1 X151.56 Y132.111 E.03902
G1 X132.067 Y151.604 E1.84647
G1 X131.851 Y151.061 E.03917
G1 X151.021 Y131.891 E1.81584
G1 X150.482 Y131.671 E.03902
G1 X131.648 Y150.505 E1.78404
G1 X131.484 Y150.057 E.03197
G1 X131.476 Y149.998 E.00397
G1 X131.532 Y149.862 E.00987
G1 X149.89 Y131.503 E1.739
G1 X148.691 Y131.943 E.0856
G1 X132.055 Y148.578 E1.57577
G1 X132.579 Y147.295 E.09282
G1 X147.379 Y132.495 E1.40198
G1 X146.068 Y133.046 E.09528
G1 X133.102 Y146.012 E1.22819
G1 X133.626 Y144.729 E.09282
G1 X144.757 Y133.598 E1.0544
G1 X143.446 Y134.15 E.09528
G1 X134.149 Y143.446 E.88061
G1 X134.673 Y142.163 E.09282
G1 X142.135 Y134.701 E.70683
G1 X140.824 Y135.253 E.09528
G1 X135.197 Y140.88 E.53304
G1 X135.72 Y139.597 E.09282
G1 X139.513 Y135.805 E.35925
G1 X138.202 Y136.356 E.09528
G1 X135.804 Y138.754 E.22712
M106 S255
;LAYER_CHANGE
;Z:0.9
;HEIGHT:0.3
;BEFORE_LAYER_CHANGE
;0.9
G92 E0
G1 Z0.600 F7800
;AFTER_LAYER_CHANGE
;0.9
;TYPE:External perimeter
;WIDTH:0.675
G1 F900
G1 Z0.602 X135.753 Y138.005 E0.000
G1 Z0.605 X136.326 Y136.772 E0.002
G1 Z0.606 X136.614 Y136.4 E0.001
G1 Z0.607 X136.653 Y136.377 E0.000
G1 Z0.639 X148.41 Y131.442 E0.127
G1 Z0.643 X149.685 Y130.975 E0.015
G1 Z0.644 X150.157 Y130.915 E0.005
G1 Z0.677 X161.995 Y135.753 E0.249
G1 Z0.680 X163.228 Y136.326 E0.028
G1 Z0.681 X163.6 Y136.614 E0.010
G1 Z0.714 X168.558 Y148.41 E0.371
G1 Z0.718 X169.025 Y149.685 E0.041
G1 Z0.719 X169.085 Y150.155 E0.014
G1 Z0.752 X164.247 Y161.995 E0.493
G1 Z0.755 X163.674 Y163.228 E0.054
G1 Z0.756 X163.386 Y163.6 E0.019
G1 Z0.789 X151.59 Y168.558 E0.615
G1 Z0.793 X150.315 Y169.025 E0.066
G1 Z0.794 X149.845 Y169.085 E0.023
G1 Z0.827 X138.005 Y164.247 E0.736
G1 Z0.830 X136.772 Y163.674 E0.079
G1 Z0.831 X136.4 Y163.386 E0.028
G1 Z0.864 X131.442 Y151.59 E0.858
G1 Z0.868 X130.975 Y150.315 E0.092
G1 Z0.869 X130.915 Y149.845 E0.032
G1 Z0.900 X135.498 Y138.629 E0.923
;LAYER_CHANGE
;Z:1.2
;HEIGHT:0.3
;BEFORE_LAYER_CHANGE
;1.2
G92 E0
G1 Z0.900 F7800
;AFTER_LAYER_CHANGE
;1.2
G1 F900
G1 Z0.901 X135.579 Y138.033 E.04435
G1 Z0.905 X136.147 Y136.811 E.10263
G1 Z0.907 X136.574 Y136.261 E.05299
G1 Z0.907 X136.658 Y136.212 E.00744
G1 Z0.939 X148.268 Y131.338 E.95898
G1 Z0.942 X149.527 Y130.877 E.10211
G1 Z0.944 X150.228 Y130.788 E.05378
G1 Z0.976 X161.967 Y135.579 E.96565
G1 Z0.980 X163.189 Y136.147 E.10263
G1 Z0.982 X163.739 Y136.574 E.05299
G1 Z0.982 X163.788 Y136.658 E.00744
G1 Z1.014 X168.662 Y148.268 E.95898
G1 Z1.017 X169.123 Y149.527 E.10211
G1 Z1.019 X169.212 Y150.228 E.05378
G1 Z1.051 X164.421 Y161.967 E.96565
G1 Z1.055 X163.853 Y163.189 E.10263
G1 Z1.057 X163.426 Y163.739 E.05299
G1 Z1.057 X163.342 Y163.788 E.00744
G1 Z1.089 X151.732 Y168.662 E.95898
G1 Z1.092 X150.473 Y169.123 E.10211
G1 Z1.094 X149.772 Y169.212 E.05378
G1 Z1.126 X138.033 Y164.421 E.96565
G1 Z1.130 X136.811 Y163.853 E.10263
G1 Z1.132 X136.261 Y163.426 E.05299
G1 Z1.132 X136.212 Y163.342 E.00744
G1 Z1.164 X131.338 Y151.732 E.95898
G1 Z1.167 X130.877 Y150.473 E.10211
G1 Z1.169 X130.788 Y149.772 E.05378
G1 Z1.200 X135.359 Y138.572 E.9213
;LAYER_CHANGE
;Z:1.5
;HEIGHT:0.3
;BEFORE_LAYER_CHANGE
;1.5
G92 E0
G1 Z1.200 F7800
;AFTER_LAYER_CHANGE
;1.5
G1 F900
G1 Z1.201 X135.405 Y138.061 E.03736
G1 Z1.205 X135.967 Y136.853 E.10148
G1 Z1.207 X136.533 Y136.123 E.07037
G1 Z1.207 X136.663 Y136.047 E.01145
G1 Z1.239 X148.345 Y131.147 E.96478
G1 Z1.242 X149.368 Y130.779 E.0828
G1 Z1.244 X150.298 Y130.662 E.07143
G1 Z1.245 X150.41 Y130.689 E.00877
G1 Z1.276 X161.939 Y135.405 E.94864
G1 Z1.280 X163.147 Y135.967 E.10148
G1 Z1.282 X163.877 Y136.533 E.07037
G1 Z1.282 X163.953 Y136.663 E.01145
G1 Z1.314 X168.853 Y148.345 E.96479
G1 Z1.317 X169.221 Y149.368 E.0828
G1 Z1.319 X169.338 Y150.298 E.07143
G1 Z1.320 X169.311 Y150.41 E.00877
G1 Z1.351 X164.595 Y161.939 E.94864
G1 Z1.355 X164.033 Y163.147 E.10148
G1 Z1.357 X163.467 Y163.877 E.07037
G1 Z1.357 X163.337 Y163.953 E.01145
G1 Z1.389 X151.655 Y168.853 E.96478
G1 Z1.392 X150.632 Y169.221 E.0828
G1 Z1.394 X149.702 Y169.338 E.07143
G1 Z1.395 X149.59 Y169.311 E.00877
G1 Z1.426 X138.061 Y164.595 E.94864
G1 Z1.430 X136.853 Y164.033 E.10148
G1 Z1.432 X136.123 Y163.467 E.07037
G1 Z1.432 X136.047 Y163.337 E.01146
G1 Z1.464 X131.147 Y151.655 E.96477
G1 Z1.467 X130.779 Y150.632 E.0828
G1 Z1.469 X130.662 Y149.702 E.07143
G1 Z1.470 X130.689 Y149.59 E.00877
G1 Z1.500 X135.219 Y138.515 E.91128
;LAYER_CHANGE
;Z:1.8
;HEIGHT:0.3
;BEFORE_LAYER_CHANGE
;1.8
G92 E0
G1 Z1.500 F7800
;AFTER_LAYER_CHANGE
;1.8
G1 F900
G1 Z1.502 X135.413 Y137.671 E.06511
G1 Z1.504 X135.785 Y136.896 E.06543
G1 Z1.507 X136.497 Y135.98 E.08841
G1 Z1.508 X136.667 Y135.882 E.01492
G1 Z1.539 X148.2 Y131.044 E.9525
G1 Z1.542 X149.215 Y130.68 E.08214
G1 Z1.545 X150.369 Y130.535 E.08856
G1 Z1.545 X150.525 Y130.574 E.0122
G1 Z1.577 X162.329 Y135.413 E.97167
G1 Z1.579 X163.104 Y135.785 E.06543
G1 Z1.582 X164.02 Y136.497 E.08841
G1 Z1.583 X164.118 Y136.667 E.01491
G1 Z1.614 X168.956 Y148.2 E.95251
G1 Z1.617 X169.32 Y149.215 E.08214
G1 Z1.620 X169.465 Y150.369 E.08856
G1 Z1.620 X169.426 Y150.525 E.0122
G1 Z1.652 X164.587 Y162.329 E.97167
G1 Z1.654 X164.215 Y163.104 E.06543
G1 Z1.657 X163.503 Y164.02 E.08841
G1 Z1.658 X163.333 Y164.118 E.01492
G1 Z1.689 X151.8 Y168.956 E.9525
G1 Z1.692 X150.785 Y169.32 E.08214
G1 Z1.695 X149.631 Y169.465 E.08856
G1 Z1.695 X149.475 Y169.426 E.0122
G1 Z1.727 X137.671 Y164.587 E.97167
G1 Z1.729 X136.896 Y164.215 E.06543
G1 Z1.732 X135.98 Y163.503 E.08841
G1 Z1.733 X135.882 Y163.333 E.01493
G1 Z1.764 X131.044 Y151.8 E.95249
G1 Z1.767 X130.68 Y150.785 E.08214
G1 Z1.770 X130.535 Y149.631 E.08856
G1 Z1.770 X130.574 Y149.475 E.0122
G1 Z1.800 X135.089 Y138.462 E.90656
;LAYER_CHANGE
;Z:2.1
;HEIGHT:0.3
;BEFORE_LAYER_CHANGE
;2.1
G92 E0
G1 Z1.800 F7800
;AFTER_LAYER_CHANGE
;2.1
G1 F900
G1 Z1.802 X135.239 Y137.698 E.05816
G1 Z1.804 X135.605 Y136.938 E.06422
G1 Z1.808 X136.468 Y135.827 E.10713
G1 Z1.808 X136.529 Y135.784 E.00575
G1 Z1.839 X148.056 Y130.942 E.95216
