; generated by PrusaSlicer 2.5.0+MacOS-arm64 on 2023-03-28 at 10:21:43 UTC


;
;
; 

; external perimeters extrusion width = 0.68mm
; perimeters extrusion width = 0.68mm
; infill extrusion width = 0.68mm
; solid infill extrusion width = 0.68mm
; top infill extrusion width = 0.60mm

; external perimeters extrusion width = 0.68mm
; perimeters extrusion width = 0.68mm
; infill extrusion width = 0.68mm
; solid infill extrusion width = 0.68mm
; top infill extrusion width = 0.60mm

M73 P0 R55
M201 X9000 Y9000 Z500 E10000 ; sets maximum accelerations, mm/sec^2
M203 X500 Y500 Z12 E120 ; sets maximum feedrates, mm / sec
M204 P2000 R1500 T2000 ; sets acceleration (P, T) and retract acceleration (R), mm/sec^2
M205 X10.00 Y10.00 Z0.20 E4.50 ; sets the jerk limits, mm/sec
M205 S0 T0 ; sets the minimum extruding and travel feed rate, mm/sec
M107
;TYPE:Custom
M862.3 P "MK2.5" ; printer model check
M862.1 P0.6 ; nozzle diameter check
M115 U3.12.2 ; tell printer latest fw version
G90 ; use absolute coordinates
M83 ; extruder relative mode
M104 S215 ; set extruder temp
M140 S60 ; set bed temp
M190 S60 ; wait for bed temp
M109 S215 ; wait for extruder temp
G28 W ; home all without mesh bed level
G80 ; mesh bed leveling

G92 E0
G21 ; set units to millimeters
G90 ; use absolute coordinates
M83 ; use relative distances for extrusion
T0
M900 K0.04 ; Filament gcode LA 1.5
M900 K18 ; Filament gcode LA 1.0
M107
;LAYER_CHANGE
;Z:0.2
;HEIGHT:0.2
;BEFORE_LAYER_CHANGE
G92 E0.0
;0.2


G1 E-.8 F2100
G1 Z.4 F7800
;AFTER_LAYER_CHANGE
;0.2
G1 X32.532 Y108.136
G1 Z.2
G1 E.8 F1500
;TYPE:Perimeter
;WIDTH:0.674999
G1 F1800
G1 X31.246 Y105.002 E.17806
G1 X24.259 Y87.584 E.98636
G1 X21.518 Y80.632 E.39276
G1 X19.693 Y75.867 E.26815
G1 X19.336 Y74.843 E.05699
G1 X19.252 Y74.441 E.02158
G1 X19.314 Y74.417 E.00349
G1 X23.441 Y74.118 E.21745
G1 X27.521 Y73.864 E.21484
G1 X31.901 Y73.646 E.2305
G1 X36.633 Y73.475 E.24887
G1 X41.766 Y73.364 E.26987
G1 X47.373 Y73.324 E.29466
G1 X49.983 Y73.372 E.1372
G1 X51.338 Y73.426 E.07132
G1 X54.024 Y73.575 E.14138
G1 X57.546 Y73.841 E.18559
G1 X59.241 Y74 E.08949
G1 X60.104 Y74.106 E.04572
G1 X60.534 Y74.261 E.02399
G1 X60.523 Y74.366 E.00559
G1 X59.967 Y76.102 E.09581
G1 X59.379 Y77.675 E.08824
G1 X57.629 Y82.103 E.25025
G1 X50.262 Y100.471 E1.04014
G1 X49.189 Y103.204 E.15429
G1 X47.497 Y107.635 E.24929
G1 X44.816 Y103.578 E.25559
G1 X43.562 Y101.761 E.11599
G1 X43.126 Y101.21 E.03696
G1 X42.65 Y100.752 E.0347
G1 X42.111 Y100.358 E.03513
G1 X41.514 Y100.037 E.03561
G1 X40.866 Y99.804 E.03617
G1 X40.176 Y99.677 E.03686
G1 X39.459 Y99.675 E.03771
G1 X38.735 Y99.813 E.03872
G1 X38.032 Y100.103 E.03996
G1 X37.374 Y100.542 E.04161
G1 X36.776 Y101.127 E.04395
G1 X36.275 Y101.805 E.04433
G1 X35.514 Y103.047 E.07651
G1 X33.203 Y107.038 E.2424
G1 X32.579 Y108.059 E.06293
;WIPE_START
G1 F6240
G1 X31.629 Y105.881 E-.76
;WIPE_END
G1 E-.04 F2100
G1 Z.6 F7800
G1 X32.615 Y109.07
G1 Z.2
G1 E.8 F1500
;TYPE:External perimeter
G1 F1800
G1 X32.46 Y109.075 E.00814
G1 X32.258 Y108.9 E.01406
G1 X31.961 Y108.41 E.03013
G1 X30.66 Y105.24 E.18008
G1 X23.672 Y87.817 E.9866
G1 X20.929 Y80.861 E.39302
G1 X19.099 Y76.084 E.26882
G1 X18.717 Y74.988 E.06101
G1 X18.613 Y74.468 E.02787
G1 X18.649 Y74.158 E.01643
G1 X18.756 Y73.983 E.01074
G1 X18.866 Y73.911 E.00692
G1 X19.207 Y73.791 E.01902
G1 X23.398 Y73.487 E.22087
G1 X27.485 Y73.233 E.21521
G1 X31.874 Y73.014 E.23094
G1 X36.615 Y72.843 E.24934
G1 X41.757 Y72.732 E.27035
G1 X47.376 Y72.692 E.29532
G1 X50.001 Y72.74 E.13798
G1 X51.369 Y72.794 E.07193
G1 X54.066 Y72.944 E.14198
G1 X57.599 Y73.211 E.18622
G1 X59.294 Y73.37 E.0895
G1 X60.11 Y73.465 E.04315
G1 X60.546 Y73.572 E.02356
G1 X60.828 Y73.698 E.01627
G1 X61.07 Y73.897 E.01649
G1 X61.16 Y74.148 E.01396
G1 X61.143 Y74.503 E.01871
G1 X60.564 Y76.31 E.09971
G1 X59.969 Y77.902 E.08934
G1 X58.216 Y82.337 E.25065
G1 X50.849 Y100.707 E1.04022
G1 X49.781 Y103.425 E.15352
G1 X48.116 Y107.799 E.24595
G1 X47.86 Y108.249 E.02723
G1 X47.587 Y108.433 E.01729
G1 X47.277 Y108.316 E.01744
G1 X46.954 Y107.983 E.02438
G1 X44.296 Y103.937 E.25446
G1 X43.042 Y102.12 E.11599
G1 X42.683 Y101.66 E.0307
G1 X42.27 Y101.257 E.03029
G1 X41.803 Y100.91 E.0306
G1 X41.29 Y100.628 E.03078
G1 X40.739 Y100.423 E.0309
G1 X40.159 Y100.309 E.03105
G1 X39.562 Y100.298 E.03139
G1 X38.961 Y100.404 E.03207
G1 X38.371 Y100.636 E.0333
G1 X37.808 Y101.001 E.03528
G1 X37.283 Y101.504 E.03824
G1 X36.814 Y102.135 E.04131
G1 X36.049 Y103.384 E.07693
G1 X33.747 Y107.361 E.24155
G1 X32.818 Y108.881 E.09364
G1 X32.681 Y109.009 E.00982
G1 X32.496 Y108.971 F7800
;WIPE_START
G1 F6240
G1 X32.46 Y109.075 E-.07366
G1 X32.258 Y108.9 E-.08555
G1 X31.961 Y108.41 E-.18326
G1 X31.465 Y107.201 E-.41754
;WIPE_END
G1 E-.04 F2100
G1 Z.6 F7800
G1 X60.028 Y75.292
G1 Z.2
G1 E.8 F1500
;TYPE:Solid infill
;WIDTH:0.680528
G1 F1800
G1 X59.21 Y74.474 E.06131
G1 X58.214 Y74.38 E.05304
G1 X59.583 Y75.748 E.10261
G1 X59.345 Y76.412 E.03739
G1 X57.224 Y74.292 E.15898
G1 X56.249 Y74.218 E.05186
G1 X59.1 Y77.069 E.21372
G1 X58.851 Y77.722 E.03705
G1 X55.274 Y74.145 E.26821
G1 X54.298 Y74.071 E.05186
G1 X58.595 Y78.368 E.32219
G1 X58.34 Y79.014 E.03684
G1 X53.337 Y74.011 E.3751
G1 X52.383 Y73.959 E.05069
G1 X58.085 Y79.661 E.42753
G1 X57.829 Y80.307 E.03684
G1 X51.428 Y73.906 E.47996
G1 X50.487 Y73.866 E.04992
G1 X57.574 Y80.953 E.53135
G1 X57.318 Y81.599 E.03684
G1 X49.557 Y73.838 E.58192
G1 X48.639 Y73.821 E.04871
G1 X57.062 Y82.244 E.63154
G1 X56.804 Y82.888 E.03676
G1 X47.72 Y73.805 E.68105
G1 X46.818 Y73.805 E.0478
G1 X56.545 Y83.532 E.7293
G1 X56.287 Y84.175 E.03676
G1 X45.923 Y73.811 E.77712
G1 X45.027 Y73.816 E.0475
G1 X56.029 Y84.819 E.82494
G1 X55.771 Y85.462 E.03676
G1 X44.131 Y73.822 E.87275
G1 X43.235 Y73.828 E.0475
G1 X55.513 Y86.106 E.92057
G1 X55.255 Y86.75 E.03676
G1 X42.339 Y73.834 E.96838
G1 X41.448 Y73.845 E.04724
G1 X54.997 Y87.393 E1.01583
G1 X54.738 Y88.037 E.03676
G1 X40.566 Y73.864 E1.06266
G1 X39.683 Y73.883 E.0468
G1 X54.48 Y88.68 E1.10948
G1 X54.222 Y89.324 E.03676
G1 X38.8 Y73.902 E1.1563
G1 X37.918 Y73.921 E.0468
G1 X53.964 Y89.967 E1.20312
G1 X53.706 Y90.611 E.03676
M73 P0 R54
G1 X37.035 Y73.94 E1.24994
G1 X36.159 Y73.966 E.04645
G1 X53.448 Y91.255 E1.29625
G1 X53.19 Y91.898 E.03676
G1 X35.289 Y73.998 E1.34215
G1 X34.419 Y74.029 E.04617
G1 X52.932 Y92.542 E1.38805
G1 X52.673 Y93.185 E.03676
G1 X33.548 Y74.06 E1.43395
G1 X32.678 Y74.092 E.04617
G1 X52.415 Y93.829 E1.47985
G1 X52.157 Y94.473 E.03676
M73 P1 R54
G1 X31.809 Y74.125 E1.52564
G1 X30.95 Y74.168 E.04559
G1 X51.899 Y95.116 E1.57068
G1 X51.641 Y95.76 E.03676
G1 X30.092 Y74.21 E1.61572
G1 X29.233 Y74.253 E.04559
G1 X51.383 Y96.403 E1.66077
G1 X51.125 Y97.047 E.03676
G1 X28.374 Y74.296 E1.70581
G1 X27.515 Y74.339 E.04557
G1 X50.867 Y97.69 E1.75083
G1 X50.608 Y98.334 E.03676
G1 X26.666 Y74.392 E1.79512
G1 X25.818 Y74.445 E.04509
G1 X50.35 Y98.978 E1.83941
G1 X50.092 Y99.621 E.03676
G1 X24.969 Y74.498 E1.8837
G1 X24.12 Y74.551 E.04509
G1 X49.834 Y100.265 E1.92799
G1 X49.579 Y100.912 E.03687
G1 X23.273 Y74.605 E1.9724
G1 X22.432 Y74.666 E.04469
G1 X49.325 Y101.559 E2.01638
G1 X49.071 Y102.207 E.03688
G1 X21.591 Y74.727 E2.06035
G1 X20.751 Y74.788 E.04469
G1 X48.817 Y102.854 E2.10433
G1 X48.566 Y103.506 E.037
G1 X19.91 Y74.849 E2.14861
G1 X19.845 Y74.854 E.00344
G1 X20.309 Y76.15 E.07298
G1 X48.318 Y104.159 E2.10006
G1 X48.069 Y104.812 E.03705
G1 X20.869 Y77.612 E2.03943
G1 X21.429 Y79.074 E.083
G1 X47.821 Y105.465 E1.9788
G1 X47.572 Y106.118 E.03705
G1 X45.065 Y103.611 E.18802
;WIPE_START
G1 F6240
G1 X46.745 Y105.292 E-.76
;WIPE_END
G1 E-.04 F2100
G1 Z.6 F7800
G1 X41.151 Y99.697
G1 Z.2
G1 E.8 F1500
G1 F1800
G1 X21.991 Y80.537 E1.43658
G1 X22.577 Y82.025 E.08482
G1 X39.746 Y99.194 E1.2873
G1 X39.577 Y99.188 E.00898
G1 X38.936 Y99.285 E.0344
G1 X23.164 Y83.514 E1.18252
G1 X23.751 Y85.002 E.08482
G1 X38.249 Y99.501 E1.08706
G1 X37.908 Y99.628 E.01931
G1 X37.643 Y99.796 E.01664
G1 X24.338 Y86.491 E.99761
G1 X24.931 Y87.986 E.08528
G1 X37.101 Y100.155 E.91247
G1 X36.634 Y100.59 E.03383
G1 X25.535 Y89.491 E.83218
G1 X26.139 Y90.997 E.08601
G1 X36.222 Y101.08 E.75601
G1 X35.843 Y101.603 E.03423
G1 X26.743 Y92.503 E.68233
G1 X27.347 Y94.008 E.08601
G1 X35.5 Y102.162 E.61136
G1 X35.158 Y102.721 E.03477
G1 X27.95 Y95.514 E.5404
G1 X28.554 Y97.019 E.08601
G1 X34.825 Y103.291 E.4702
G1 X34.495 Y103.862 E.03498
G1 X29.158 Y98.525 E.40012
G1 X29.762 Y100.031 E.08601
G1 X34.164 Y104.433 E.33005
G1 X33.833 Y105.004 E.03498
G1 X30.366 Y101.536 E.25997
G1 X30.97 Y103.042 E.08601
G1 X33.503 Y105.575 E.1899
G1 X33.172 Y106.146 E.03498
G1 X31.574 Y104.548 E.11983
G1 X32.198 Y106.073 E.08737
G1 X33.05 Y106.925 E.06388
;WIPE_START
G1 F6240
G1 X32.198 Y106.073 E-.38523
G1 X31.754 Y104.988 E-.37477
;WIPE_END
G1 E-.04 F2100
G1 Z.6 F7800
G1 X80.074 Y92.744
G1 Z.2
G1 E.8 F1500
;TYPE:Perimeter
;WIDTH:0.674999
G1 F1800
G1 X79.792 Y92.793 E.01503
G1 X79.447 Y93.02 E.02171
G1 X79.31 Y93.2 E.01191
G1 X79.218 Y93.413 E.01218
G1 X78.877 Y94.578 E.06377
G1 X78.61 Y95.583 E.05463
G1 X71.224 Y117.462 E1.21369
G1 X66.985 Y115.494 E.24566
G1 X77.715 Y85.293 E1.68451
G1 X82.58 Y85.293 E.25572
M73 P2 R54
G1 X93.654 Y116.752 E1.75288
G1 X88.84 Y116.752 E.25304
G1 X81.755 Y95.571 E1.17387
G1 X81.442 Y94.513 E.05796
G1 X81.15 Y93.434 E.05874
G1 X81.041 Y93.182 E.01444
G1 X80.87 Y92.978 E.014
G1 X80.665 Y92.837 E.01308
G1 X80.454 Y92.759 E.01184
G1 X80.163 Y92.733 E.01536
G1 X80.135 Y93.363 F7800
;TYPE:External perimeter
G1 F1800
G1 X79.957 Y93.414 E.00975
G1 X79.825 Y93.591 E.01158
G1 X79.484 Y94.755 E.06377
G1 X79.216 Y95.765 E.0549
G1 X71.598 Y118.332 E1.25185
G1 X66.197 Y115.825 E.31297
G1 X77.269 Y84.661 E1.73822
G1 X83.028 Y84.661 E.3027
G1 X94.547 Y117.384 E1.82332
G1 X88.385 Y117.384 E.32387
G1 X81.152 Y95.761 E1.19837
G1 X80.833 Y94.686 E.05894
G1 X80.54 Y93.599 E.05913
G1 X80.503 Y93.515 E.00481
G1 X80.378 Y93.4 E.00894
G1 X80.224 Y93.377 E.0082
G1 X80.034 Y93.208 F7800
;WIPE_START
G1 F6240
G1 X79.957 Y93.414 E-.08636
G1 X79.825 Y93.591 E-.07047
G1 X79.484 Y94.755 E-.38795
G1 X79.311 Y95.406 E-.21523
;WIPE_END
G1 E-.04 F2100
G1 Z.6 F7800
G1 X83.154 Y87.494
G1 Z.2
G1 E.8 F1500
;TYPE:Solid infill
;WIDTH:0.68281
G1 F1800
G1 X81.427 Y85.767 E.12996
G1 X80.522 Y85.767 E.04815
G1 X83.18 Y88.425 E.20003
G1 X83.672 Y89.822 E.07877
G1 X79.617 Y85.767 E.30511
G1 X78.712 Y85.767 E.04815
G1 X84.164 Y91.218 E.4102
G1 X84.655 Y92.615 E.07877
G1 X77.986 Y85.946 E.50183
G1 X77.749 Y86.613 E.0377
G1 X85.147 Y94.011 E.55667
G1 X85.638 Y95.408 E.07877
G1 X77.512 Y87.281 E.61151
G1 X77.274 Y87.949 E.0377
G1 X86.13 Y96.804 E.66635
G1 X86.622 Y98.201 E.07877
G1 X77.037 Y88.616 E.72119
G1 X76.8 Y89.284 E.0377
G1 X79.813 Y92.297 E.22673
G1 X79.623 Y92.349 E.01049
G1 X79.355 Y92.485 E.01597
G1 X79.212 Y92.602 E.00981
G1 X76.563 Y89.952 E.19939
G1 X76.325 Y90.62 E.0377
G1 X78.826 Y93.12 E.18816
G1 X78.61 Y93.809 E.03841
G1 X76.088 Y91.287 E.18973
G1 X75.851 Y91.955 E.0377
G1 X78.405 Y94.509 E.19221
G1 X78.215 Y95.224 E.03936
G1 X75.614 Y92.623 E.19575
G1 X75.376 Y93.29 E.0377
G1 X77.999 Y95.913 E.19731
G1 X77.77 Y96.589 E.03799
G1 X75.139 Y93.958 E.19798
G1 X74.902 Y94.626 E.0377
G1 X77.542 Y97.266 E.19864
G1 X77.314 Y97.942 E.03799
G1 X74.665 Y95.294 E.19931
G1 X74.428 Y95.961 E.0377
G1 X77.085 Y98.619 E.19997
G1 X76.857 Y99.295 E.03799
G1 X74.19 Y96.629 E.20064
G1 X73.953 Y97.297 E.0377
G1 X76.628 Y99.972 E.2013
G1 X76.4 Y100.648 E.03799
G1 X73.716 Y97.964 E.20197
G1 X73.479 Y98.632 E.0377
G1 X76.172 Y101.325 E.20263
G1 X75.943 Y102.002 E.03799
G1 X73.241 Y99.3 E.2033
G1 X73.004 Y99.968 E.0377
G1 X75.715 Y102.678 E.20396
G1 X75.486 Y103.355 E.03799
G1 X72.767 Y100.635 E.20463
G1 X72.53 Y101.303 E.0377
G1 X75.258 Y104.031 E.20529
G1 X75.03 Y104.708 E.03799
G1 X72.293 Y101.971 E.20596
G1 X72.055 Y102.638 E.0377
G1 X74.801 Y105.384 E.20662
G1 X74.573 Y106.061 E.03799
G1 X71.818 Y103.306 E.20729
G1 X71.581 Y103.974 E.0377
G1 X74.345 Y106.737 E.20795
G1 X74.116 Y107.414 E.03799
G1 X71.344 Y104.642 E.20862
G1 X71.106 Y105.309 E.0377
G1 X73.888 Y108.091 E.20928
G1 X73.659 Y108.767 E.03799
G1 X70.869 Y105.977 E.20995
G1 X70.632 Y106.645 E.0377
G1 X73.431 Y109.444 E.21061
G1 X73.203 Y110.12 E.03799
G1 X70.395 Y107.312 E.21128
G1 X70.158 Y107.98 E.0377
G1 X72.974 Y110.797 E.21194
G1 X72.746 Y111.473 E.03799
G1 X69.92 Y108.648 E.21261
G1 X69.683 Y109.316 E.0377
G1 X72.517 Y112.15 E.21327
G1 X72.289 Y112.826 E.03799
G1 X69.446 Y109.983 E.21394
G1 X69.209 Y110.651 E.0377
G1 X72.061 Y113.503 E.2146
G1 X71.832 Y114.18 E.03799
G1 X68.971 Y111.319 E.21527
G1 X68.734 Y111.986 E.0377
G1 X71.604 Y114.856 E.21593
G1 X71.375 Y115.533 E.03799
G1 X68.497 Y112.654 E.2166
G1 X68.26 Y113.322 E.0377
G1 X71.147 Y116.209 E.21726
G1 X70.944 Y116.81 E.03371
G1 X70.754 Y116.721 E.01117
G1 X68.023 Y113.99 E.20554
G1 X67.785 Y114.657 E.0377
G1 X69.65 Y116.522 E.14034
;WIPE_START
G1 F6240
G1 X67.969 Y114.841 E-.76
;WIPE_END
G1 E-.04 F2100
G1 Z.6 F7800
G1 X87.578 Y100.063
G1 Z.2
G1 E.8 F1500
G1 F1800
G1 X81.914 Y94.399 E.42621
G1 X82.291 Y95.68 E.07108
G1 X87.605 Y100.994 E.39984
G1 X88.096 Y102.39 E.07877
G1 X82.746 Y97.04 E.4026
G1 X83.201 Y98.4 E.07629
G1 X88.588 Y103.787 E.40537
G1 X89.079 Y105.183 E.07877
G1 X83.656 Y99.76 E.40813
G1 X84.11 Y101.119 E.07629
G1 X89.571 Y106.58 E.41089
G1 X90.063 Y107.977 E.07877
G1 X84.565 Y102.479 E.41366
G1 X85.02 Y103.839 E.07629
G1 X90.554 Y109.373 E.41642
G1 X91.046 Y110.77 E.07877
G1 X85.475 Y105.199 E.41919
G1 X85.93 Y106.558 E.07629
G1 X91.537 Y112.166 E.42195
G1 X92.029 Y113.563 E.07877
G1 X86.385 Y107.918 E.42472
G1 X86.839 Y109.278 E.07629
M73 P2 R53
G1 X92.521 Y114.959 E.42748
G1 X92.985 Y116.278 E.07441
G1 X92.935 Y116.278 E.00267
G1 X87.294 Y110.638 E.42442
G1 X87.749 Y111.998 E.07629
G1 X92.03 Y116.278 E.3221
G1 X91.125 Y116.278 E.04815
G1 X88.204 Y113.357 E.21978
G1 X88.659 Y114.717 E.07629
G1 X90.22 Y116.278 E.11747
G1 X89.315 Y116.278 E.04815
G1 X88.663 Y115.626 E.04906
;WIPE_START
G1 F6240
G1 X89.315 Y116.278 E-.29479
G1 X90.22 Y116.278 E-.28932
G1 X89.831 Y115.889 E-.17589
;WIPE_END
G1 E-.04 F2100
G1 Z.6 F7800
G1 X111.532 Y87.594
G1 Z.2
G1 E.8 F1500
;TYPE:Perimeter
;WIDTH:0.674999
G1 F1800
G1 X111.863 Y87.451 E.01892
G1 X112.051 Y87.276 E.01351
G1 X112.233 Y86.922 E.02092
G1 X112.266 Y86.676 E.01309
G1 X112.266 Y85.293 E.07267
G1 X116.563 Y85.293 E.22587
G1 X116.563 Y107.722 E1.17881
G1 X112.266 Y107.722 E.22587
G1 X112.265 Y95.182 E.65906
G1 X112.226 Y94.21 E.05112
G1 X112.112 Y93.304 E.048
G1 X111.917 Y92.463 E.04534
G1 X111.637 Y91.69 E.04322
G1 X111.267 Y90.99 E.04162
G1 X110.806 Y90.373 E.0405
G1 X110.259 Y89.85 E.03979
G1 X109.637 Y89.428 E.03951
G1 X109.123 Y89.181 E.02996
G1 X108.768 Y89.054 E.01982
G1 X108.213 Y88.892 E.03039
G1 X107.526 Y88.778 E.0366
G1 X106.974 Y88.745 E.02904
G1 X106.354 Y88.743 E.03262
G1 X105.753 Y88.786 E.03166
G1 X104.7 Y89.017 E.05667
G1 X103.66 Y89.522 E.06075
G1 X103.208 Y89.867 E.02987
G1 X102.848 Y90.239 E.02721
G1 X102.422 Y90.783 E.03633
G1 X102.176 Y91.246 E.02754
G1 X101.987 Y91.689 E.02533
G1 X101.685 Y92.667 E.05378
G1 X101.541 Y93.52 E.0455
G1 X101.444 Y94.886 E.07197
G1 X101.438 Y108.238 E.70174
G1 X97.14 Y106.213 E.24972
G1 X97.14 Y93.364 E.67529
G1 X97.161 Y92.523 E.04425
G1 X97.214 Y91.78 E.03912
G1 X97.301 Y91.08 E.03708
G1 X97.421 Y90.423 E.0351
G1 X97.572 Y89.809 E.03323
G1 X97.754 Y89.238 E.03151
G1 X97.992 Y88.655 E.03309
G1 X98.279 Y88.096 E.03304
G1 X98.631 Y87.551 E.03404
G1 X99 Y87.094 E.03091
G1 X99.409 Y86.694 E.03006
G1 X100.038 Y86.186 E.04248
G1 X100.497 Y85.873 E.02922
G1 X100.979 Y85.6 E.0291
G1 X101.552 Y85.332 E.03326
G1 X102.104 Y85.126 E.03098
G1 X102.633 Y84.972 E.02894
G1 X103.192 Y84.852 E.03003
G1 X103.699 Y84.779 E.02696
G1 X104.226 Y84.735 E.02776
G1 X104.786 Y84.72 E.02945
G1 X105.419 Y84.738 E.0333
G1 X106.032 Y84.791 E.03233
G1 X106.544 Y84.869 E.02724
G1 X107.089 Y84.986 E.02927
G1 X107.602 Y85.136 E.02813
G1 X108.088 Y85.32 E.02727
G1 X108.547 Y85.537 E.02668
G1 X108.981 Y85.789 E.02637
G1 X109.446 Y86.116 E.02989
G1 X109.872 Y86.487 E.02967
G1 X110.78 Y87.457 E.06984
