; generated by PrusaSlicer 2.5.0+MacOS-arm64 on 2023-03-31 at 09:03:05 UTC

; 

; external perimeters extrusion width = 0.68mm
; perimeters extrusion width = 0.68mm
; infill extrusion width = 0.68mm
; solid infill extrusion width = 0.68mm
; top infill extrusion width = 0.60mm

M201 X1000 Y1000 Z1000 E5000 ; sets maximum accelerations, mm/sec^2
M203 X200 Y200 Z12 E120 ; sets maximum feedrates, mm / sec
M204 P1250 R1250 T1250 ; sets acceleration (P, T) and retract acceleration (R), mm/sec^2
M205 X8.00 Y8.00 Z0.40 E1.50 ; sets the jerk limits, mm/sec
M205 S0 T0 ; sets the minimum extruding and travel feed rate, mm/sec
M107
;TYPE:Custom
; Initial setups
G90 ; use absolute coordinates
M83 ; extruder relative mode
M220 S100 ; reset speed factor to 100%
M221 S100 ; reset extrusion rate to 100%

; Set the heating
M190 S65 ; wait for bed to heat up
M104 S210 ; start nozzle heating but don't wait

; Home
G1 Z3 F3000 ; move z up little to prevent scratching of surface
G28 ; home all axes
G1 X3 Y3 F5000 ; move to corner of the bed to avoid ooze over centre

; Wait for final heating
M109 S210 ; wait for the nozzle to heat up
M190 S65 ; wait for the bed to heat up

G92 E0 ; Reset Extruder
M221 S95
G21 ; set units to millimeters
G90 ; use absolute coordinates
M83 ; use relative distances for extrusion
; Filament gcode
M107
;LAYER_CHANGE
;Z:0.3
;HEIGHT:0.3
;BEFORE_LAYER_CHANGE
;0.3
G92 E0
G1 E-1.9 F2100
G1 Z.6 F7800
;AFTER_LAYER_CHANGE
;0.3
G1 X99.055 Y149.813
G1 Z.3
G1 E1.9 F2100
;TYPE:Perimeter
;WIDTH:0.675
G1 F1800
G1 X99.715 Y150.784 E.08941
G1 X101.075 Y152.921 E.19294
G1 X104.038 Y157.757 E.43188
G1 X105.133 Y159.642 E.1661
G1 X106.209 Y161.624 E.17176
G1 X107.197 Y163.539 E.1641
G1 X108.026 Y165.215 E.14238
G1 X108.619 Y166.476 E.10611
G1 X108.871 Y167.065 E.04885
G1 X106.001 Y167.614 E.22254
G1 X104.572 Y167.855 E.1104
G1 X103.197 Y168.062 E.10587
G1 X101.87 Y168.234 E.10193
G1 X100.579 Y168.372 E.09883
G1 X99.316 Y168.476 E.09658
G1 X98.068 Y168.548 E.0952
G1 X96.825 Y168.586 E.09469
G1 X95.576 Y168.593 E.09508
G1 X94.315 Y168.567 E.09607
G1 X92.145 Y168.453 E.1655
G1 X91.394 Y168.375 E.05753
G1 X90.413 Y168.217 E.07565
G1 X89.626 Y168.025 E.0617
G1 X89.142 Y167.862 E.03889
G1 X89.27 Y167.513 E.02832
G1 X89.674 Y166.664 E.07156
G1 X90.29 Y165.463 E.10281
G1 X91.07 Y163.992 E.12678
G1 X92.976 Y160.497 E.30322
G1 X98.38 Y150.832 E.84333
G1 X98.93 Y149.897 E.08262
G1 X98.98 Y149.863 E.00462
G1 X99.26 Y149.155 F7800
;TYPE:External perimeter
G1 F1800
G1 X99.527 Y149.422 E.02875
G1 X100.225 Y150.448 E.09453
G1 X101.593 Y152.597 E.19397
G1 X104.562 Y157.444 E.43296
G1 X105.666 Y159.343 E.16725
G1 X106.749 Y161.338 E.17292
G1 X107.743 Y163.264 E.165
G1 X108.576 Y164.95 E.14323
G1 X109.176 Y166.225 E.10738
G1 X109.449 Y166.863 E.05283
G1 X109.582 Y167.363 E.03941
G1 X109.515 Y167.486 E.01066
G1 X109.189 Y167.626 E.02703
G1 X106.109 Y168.215 E.23882
G1 X104.668 Y168.458 E.11133
G1 X103.282 Y168.667 E.10676
G1 X101.941 Y168.84 E.10292
G1 X100.637 Y168.98 E.09991
G1 X99.358 Y169.086 E.09773
G1 X98.094 Y169.158 E.0964
G1 X96.836 Y169.197 E.09591
G1 X95.572 Y169.203 E.09628
G1 X94.293 Y169.177 E.09741
G1 X92.168 Y169.066 E.16203
G1 X91.248 Y168.97 E.07047
G1 X90.226 Y168.8 E.07888
G1 X89.403 Y168.596 E.06458
G1 X88.899 Y168.422 E.04061
G1 X88.593 Y168.214 E.02821
G1 X88.523 Y168.008 E.0166
G1 X88.533 Y167.82 E.0143
G1 X88.708 Y167.273 E.04374
G1 X89.127 Y166.394 E.07419
G1 X90.532 Y163.703 E.23119
G1 X92.442 Y160.202 E.30374
G1 X97.847 Y150.534 E.84357
G1 X98.421 Y149.559 E.08611
G1 X98.751 Y149.227 E.03569
G1 X99.011 Y149.089 E.02244
G1 X99.173 Y149.132 E.01277
G1 X99.278 Y149.532 F7800
;WIPE_START
G1 F6240
G1 X99.527 Y149.422 E-.14632
G1 X100.225 Y150.448 E-.39682
G1 X101.593 Y152.597 E-.81428
G1 X102.324 Y153.79 E-.44758
;WIPE_END
G1 E-.095 F2100
G1 Z.9 F7800
G1 X101.304 Y153.641
G1 Z.3
G1 E1.9 F2100
;TYPE:Solid infill
;WIDTH:0.690509
G1 F1800
G1 X98.758 Y151.095 E.28119
G1 X98.441 Y151.663 E.05081
G1 X101.886 Y155.108 E.38056
G1 X103.272 Y157.38 E.20778
G1 X98.123 Y152.231 E.56868
G1 X97.805 Y152.799 E.05081
G1 X104.541 Y159.534 E.74384
G1 X105.62 Y161.499 E.17508
G1 X97.488 Y153.366 E.89813
G1 X97.17 Y153.934 E.05081
G1 X106.583 Y163.347 E1.03959
G1 X107.465 Y165.115 E.15426
G1 X96.853 Y154.502 E1.17207
G1 X96.535 Y155.07 E.05081
G1 X108.194 Y166.729 E1.28758
G1 X107.45 Y166.871 E.0591
G1 X96.218 Y155.638 E1.24057
G1 X95.9 Y156.206 E.05081
G1 X106.707 Y167.013 E1.19355
G1 X105.964 Y167.155 E.0591
G1 X95.583 Y156.774 E1.14654
G1 X95.265 Y157.342 E.05081
G1 X105.207 Y167.284 E1.09802
G1 X104.448 Y167.411 E.06006
G1 X94.947 Y157.91 E1.04931
G1 X94.63 Y158.478 E.05081
G1 X103.679 Y167.526 E.99936
G1 X102.905 Y167.638 E.06107
G1 X94.312 Y159.046 E.94895
G1 X93.995 Y159.614 E.05081
G1 X102.121 Y167.74 E.89745
G1 X101.327 Y167.831 E.06239
G1 X93.677 Y160.182 E.84487
G1 X93.36 Y160.75 E.05082
G1 X100.527 Y167.917 E.79154
G1 X99.709 Y167.984 E.06409
G1 X93.047 Y161.323 E.73573
G1 X92.735 Y161.896 E.05097
G1 X98.882 Y168.043 E.67887
G1 X98.044 Y168.09 E.06552
G1 X92.422 Y162.469 E.62087
G1 X92.11 Y163.042 E.05097
G1 X97.185 Y168.117 E.56053
G1 X96.314 Y168.131 E.06807
G1 X91.797 Y163.615 E.49879
G1 X91.485 Y164.188 E.05097
G1 X95.429 Y168.131 E.43557
G1 X94.525 Y168.113 E.07062
G1 X91.178 Y164.766 E.36965
G1 X90.871 Y165.344 E.05115
G1 X93.597 Y168.07 E.30106
G1 X92.662 Y168.021 E.07307
G1 X90.567 Y165.926 E.23143
G1 X90.267 Y166.512 E.05138
G1 X91.702 Y167.947 E.1585
G1 X90.663 Y167.794 E.08199
G1 X89.767 Y166.897 E.09901
;WIPE_START
G1 F6240
G1 X90.663 Y167.794 E-.40532
G1 X91.702 Y167.947 E-.33566
G1 X90.267 Y166.512 E-.64887
G1 X90.567 Y165.926 E-.21034
G1 X91.02 Y166.379 E-.20481
;WIPE_END
G1 E-.095 F2100
G1 Z.9 F7800
G1 X98.389 Y146.52
G1 Z.3
G1 E1.9 F2100
;TYPE:Perimeter
;WIDTH:0.675
G1 F1800
G1 X98.235 Y146.551 E.01199
G1 X97.748 Y146.757 E.04029
G1 X97.298 Y147.063 E.04144
G1 X96.898 Y147.46 E.04295
G1 X96.579 Y147.895 E.04105
G1 X96.111 Y148.658 E.06819
G1 X94.718 Y151.063 E.21167
G1 X92.756 Y146.233 E.39704
G1 X88.401 Y135.279 E.89773
G1 X87.318 Y132.451 E.23069
G1 X87.179 Y132.031 E.03369
G1 X91.672 Y131.73 E.34297
G1 X94.289 Y131.6 E.19956
G1 X97.117 Y131.498 E.21547
G1 X100.184 Y131.431 E.23366
G1 X103.555 Y131.408 E.25678
G1 X105.081 Y131.436 E.11621
G1 X107.494 Y131.557 E.18403
G1 X109.589 Y131.715 E.15996
G1 X110.959 Y131.855 E.10486
G1 X110.725 Y132.582 E.05817
G1 X110.378 Y133.51 E.07546
G1 X104.918 Y147.164 E1.11997
G1 X103.522 Y150.789 E.29581
G1 X102.318 Y148.957 E.16691
G1 X101.556 Y147.852 E.10226
G1 X100.878 Y147.128 E.07551
G1 X100.334 Y146.774 E.04947
G1 X99.855 Y146.571 E.03959
G1 X99.309 Y146.451 E.04263
G1 X98.74 Y146.449 E.04334
G1 X98.478 Y146.502 E.02036
G1 X98.512 Y147.106 F7800
;TYPE:External perimeter
G1 F1800
G1 X98.13 Y147.245 E.03094
G1 X97.764 Y147.471 E.03282
G1 X97.422 Y147.786 E.03539
G1 X97.099 Y148.214 E.04082
G1 X96.64 Y148.964 E.06703
G1 X95.258 Y151.35 E.20998
G1 X94.656 Y152.292 E.08516
G1 X94.431 Y151.979 E.02943
G1 X92.19 Y146.461 E.45357
G1 X87.832 Y135.502 E.89819
G1 X86.739 Y132.648 E.23271
G1 X86.485 Y131.874 E.06206
G1 X86.46 Y131.636 E.01826
G1 X86.514 Y131.543 E.00816
G1 X86.698 Y131.453 E.01564
G1 X89.193 Y131.273 E.19051
G1 X91.638 Y131.12 E.18655
G1 X94.263 Y130.99 E.20017
G1 X97.099 Y130.887 E.21612
G1 X100.175 Y130.821 E.23434
G1 X103.559 Y130.797 E.25771
G1 X105.102 Y130.826 E.11754
G1 X107.533 Y130.948 E.18536
G1 X109.643 Y131.107 E.16116
G1 X111.122 Y131.258 E.11323
G1 X111.471 Y131.358 E.02765
G1 X111.609 Y131.464 E.01328
G1 X111.639 Y131.734 E.02065
G1 X111.302 Y132.782 E.08388
G1 X110.948 Y133.731 E.0771
G1 X105.489 Y147.38 E1.1196
G1 X103.861 Y151.607 E.34496
G1 X103.658 Y151.903 E.02734
G1 X103.384 Y151.691 E.02642
G1 X101.808 Y149.293 E.21855
G1 X101.053 Y148.199 E.1012
G1 X100.546 Y147.64 E.0575
G1 X100.001 Y147.286 E.04947
G1 X99.639 Y147.142 E.02968
G1 X99.275 Y147.063 E.02836
G1 X98.897 Y147.048 E.02882
G1 X98.601 Y147.092 E.02279
G1 X98.228 Y146.815 F7800
;WIPE_START
G1 F6240
G1 X98.13 Y147.245 E-.15819
G1 X97.764 Y147.471 E-.13777
G1 X97.422 Y147.786 E-.14856
G1 X97.099 Y148.214 E-.17135
G1 X96.64 Y148.964 E-.28137
G1 X95.258 Y151.35 E-.88147
G1 X95.214 Y151.42 E-.02629
;WIPE_END
G1 E-.095 F2100
G1 Z.9 F7800
G1 X109.346 Y131.881
G1 Z.3
G1 E1.9 F2100
;TYPE:Solid infill
;WIDTH:0.678567
G1 F1800
G1 X110.185 Y132.72 E.09093
G1 X109.949 Y133.352 E.0517
G1 X108.704 Y132.108 E.13482
G1 X107.765 Y132.037 E.07218
G1 X109.7 Y133.973 E.20972
G1 X109.452 Y134.593 E.05119
G1 X106.842 Y131.983 E.28277
G1 X105.928 Y131.937 E.07014
G1 X109.204 Y135.213 E.35496
G1 X108.956 Y135.834 E.05119
G1 X105.015 Y131.893 E.42696
G1 X104.13 Y131.876 E.0678
G1 X108.708 Y136.454 E.49594
G1 X108.46 Y137.075 E.05119
G1 X103.254 Y131.869 E.56394
G1 X102.391 Y131.875 E.06611
G1 X108.212 Y137.695 E.63055
G1 X107.963 Y138.316 E.05119
G1 X101.528 Y131.88 E.69716
G1 X100.665 Y131.886 E.06611
G1 X107.715 Y138.936 E.76377
G1 X107.467 Y139.557 E.05119
G1 X99.808 Y131.897 E.82976
G1 X98.958 Y131.916 E.06514
G1 X107.219 Y140.177 E.89498
G1 X106.971 Y140.797 E.05119
G1 X98.108 Y131.934 E.9602
G1 X97.257 Y131.953 E.06514
G1 X106.723 Y141.418 E1.02543
G1 X106.475 Y142.038 E.05119
G1 X96.417 Y131.981 E1.08956
G1 X95.579 Y132.011 E.06426
G1 X106.226 Y142.659 E1.1535
G1 X105.978 Y143.279 E.05119
G1 X94.741 Y132.042 E1.21744
G1 X93.908 Y132.077 E.06387
G1 X105.73 Y143.9 E1.2808
G1 X105.482 Y144.52 E.05119
G1 X93.08 Y132.118 E1.34355
G1 X92.253 Y132.16 E.06346
G1 X105.234 Y145.141 E1.4063
G1 X104.986 Y145.761 E.05119
G1 X91.43 Y132.205 E1.46859
G1 X90.615 Y132.259 E.06253
G1 X104.738 Y146.381 E1.52994
G1 X104.49 Y147.002 E.0512
G1 X89.801 Y132.313 E1.59131
G1 X88.986 Y132.367 E.06253
G1 X104.248 Y147.629 E1.65338
G1 X104.007 Y148.256 E.05148
G1 X88.172 Y132.422 E1.71546
G1 X87.808 Y132.446 E.02797
G1 X88.105 Y133.223 E.06377
G1 X103.765 Y148.883 E1.69654
G1 X103.524 Y149.51 E.05148
G1 X102.661 Y148.648 E.0934
G1 X101.928 Y147.585 E.09894
G1 X101.4 Y146.977 E.06169
G1 X101.137 Y146.75 E.02665
G1 X100.576 Y146.386 E.05117
G1 X100.24 Y146.227 E.02852
G1 X88.643 Y134.63 E1.25635
G1 X89.204 Y136.06 E.11766
G1 X99.13 Y145.986 E1.07535
G1 X98.852 Y145.979 E.0213
G1 X98.335 Y146.059 E.04012
G1 X89.777 Y137.501 E.92705
G1 X90.351 Y138.943 E.11886
G1 X97.685 Y146.278 E.79459
G1 X97.509 Y146.367 E.01515
G1 X97.143 Y146.605 E.03338
G1 X90.924 Y140.385 E.67379
G1 X91.497 Y141.827 E.11886
G1 X96.684 Y147.014 E.56189
G1 X96.534 Y147.182 E.01727
G1 X96.302 Y147.5 E.03017
G1 X92.071 Y143.269 E.45836
G1 X92.644 Y144.711 E.11886
G1 X95.961 Y148.027 E.35932
G1 X95.634 Y148.569 E.04847
G1 X93.218 Y146.154 E.26166
G1 X93.812 Y147.616 E.12092
G1 X95.315 Y149.119 E.16281
G1 X94.997 Y149.669 E.04869
G1 X93.907 Y148.58 E.11806
;WIPE_START
G1 F6240
G1 X94.997 Y149.669 E-.49271
G1 X95.315 Y149.119 E-.20322
G1 X93.812 Y147.616 E-.67947
G1 X93.307 Y146.371 E-.42959
;WIPE_END
G1 E-.095 F2100
G1 Z.9 F7800
G1 X123.347 Y142.363
G1 Z.3
G1 E1.9 F2100
;TYPE:Perimeter
;WIDTH:0.675
G1 F1800
G1 X123.251 Y142.344 E.0074
G1 X122.79 Y142.399 E.03536
G1 X122.45 Y142.622 E.03097
G1 X122.228 Y143.011 E.03416
G1 X121.882 Y144.251 E.09805
G1 X117.594 Y156.953 E1.021
G1 X115.732 Y156.089 E.15632
G1 X121.956 Y138.572 E1.41581
G1 X124.348 Y138.572 E.1822
G1 X130.718 Y156.667 E1.46101
G1 X128.62 Y156.667 E.15977
G1 X124.467 Y144.25 E.99714
G1 X124.114 Y143.009 E.09827
G1 X123.901 Y142.633 E.03294
G1 X123.576 Y142.41 E.03003
G1 X123.435 Y142.381 E.01096
G1 X123.239 Y142.954 F7800
;TYPE:External perimeter
G1 F1800
G1 X123.003 Y142.971 E.018
G1 X122.89 Y143.045 E.01032
G1 X122.816 Y143.175 E.01139
G1 X122.466 Y144.431 E.0993
G1 X117.955 Y157.794 E1.07412
G1 X114.971 Y156.409 E.25056
G1 X121.525 Y137.961 E1.491
G1 X124.781 Y137.961 E.24796
G1 X131.58 Y157.277 E1.55962
G1 X128.181 Y157.277 E.25892
G1 X123.883 Y144.431 E1.03169
G1 X123.527 Y143.176 E.09933
G1 X123.456 Y143.051 E.01098
G1 X123.321 Y142.991 E.0112
G1 X123.158 Y142.732 F7800
;WIPE_START
G1 F6240
G1 X123.003 Y142.971 E-.10187
G1 X122.89 Y143.045 E-.04334
G1 X122.816 Y143.175 E-.0478
G1 X122.466 Y144.431 E-.41684
G1 X121.27 Y147.973 E-1.19516
;WIPE_END
G1 E-.095 F2100
G1 Z.9 F7800
G1 X122.946 Y138.755
G1 Z.3
G1 E1.9 F2100
;TYPE:Solid infill
;WIDTH:0.688638
G1 F1800
G1 X124.46 Y140.268 E.16667
G1 X124.94 Y141.631 E.11246
G1 X122.338 Y139.03 E.28644
G1 X122.279 Y139.03 E.0046
G1 X122.063 Y139.637 E.05022
G1 X125.419 Y142.993 E.36953
G1 X125.899 Y144.356 E.11246
G1 X121.832 Y140.289 E.44782
G1 X121.6 Y140.94 E.05382
G1 X122.628 Y141.967 E.11312
G1 X122.103 Y142.326 E.04946
G1 X121.369 Y141.592 E.08082
G1 X121.138 Y142.243 E.05382
G1 X121.788 Y142.893 E.07161
G1 X121.594 Y143.582 E.05574
G1 X120.906 Y142.894 E.07577
G1 X120.675 Y143.546 E.05382
G1 X121.394 Y144.265 E.0792
G1 X121.171 Y144.925 E.05424
G1 X120.443 Y144.197 E.08015
G1 X120.212 Y144.849 E.05382
G1 X120.948 Y145.585 E.0811
G1 X120.726 Y146.245 E.05424
G1 X119.98 Y145.5 E.08205
G1 X119.749 Y146.151 E.05382
G1 X120.503 Y146.905 E.083
G1 X120.28 Y147.565 E.05424
G1 X119.518 Y146.803 E.08395
G1 X119.286 Y147.454 E.05382
G1 X120.057 Y148.225 E.0849
G1 X119.834 Y148.885 E.05424
G1 X119.055 Y148.106 E.08585
G1 X118.823 Y148.757 E.05382
G1 X119.612 Y149.545 E.0868
G1 X119.389 Y150.205 E.05424
G1 X118.592 Y149.408 E.08775
G1 X118.36 Y150.06 E.05382
G1 X119.166 Y150.865 E.0887
G1 X118.943 Y151.525 E.05424
G1 X118.129 Y150.711 E.08965
G1 X117.898 Y151.363 E.05382
G1 X118.72 Y152.185 E.0906
G1 X118.498 Y152.845 E.05424
G1 X117.666 Y152.014 E.09154
G1 X117.435 Y152.665 E.05382
G1 X118.275 Y153.505 E.09249
G1 X118.052 Y154.165 E.05424
G1 X117.203 Y153.317 E.09344
G1 X116.972 Y153.968 E.05382
G1 X117.829 Y154.825 E.09439
G1 X117.606 Y155.486 E.05424
G1 X116.74 Y154.62 E.09534
G1 X116.509 Y155.271 E.05382
G1 X117.6 Y156.362 E.12017
;WIPE_START
G1 F6240
G1 X116.509 Y155.271 E-.49343
G1 X116.74 Y154.62 E-.22101
G1 X117.606 Y155.486 E-.3915
G1 X117.829 Y154.825 E-.22272
G1 X116.972 Y153.968 E-.3876
G1 X117.065 Y153.707 E-.08874
;WIPE_END
G1 E-.095 F2100
G1 Z.9 F7800
G1 X126.828 Y146.168
G1 Z.3
G1 E1.9 F2100
G1 F1800
G1 X124.969 Y144.309 E.20465
G1 X125.413 Y145.636 E.10891
G1 X126.858 Y147.081 E.1591
G1 X127.338 Y148.443 E.11246
G1 X125.857 Y146.962 E.16304
G1 X126.301 Y148.289 E.10891
G1 X127.817 Y149.805 E.16699
G1 X128.297 Y151.168 E.11246
G1 X126.744 Y149.615 E.17094
G1 X127.188 Y150.942 E.10891
G1 X128.776 Y152.53 E.17488
G1 X129.256 Y153.893 E.11246
G1 X127.632 Y152.268 E.17883
G1 X128.076 Y153.595 E.10891
G1 X129.735 Y155.255 E.18278
G1 X130.071 Y156.209 E.07874
G1 X129.807 Y156.209 E.02061
G1 X128.084 Y154.486 E.18968
;WIPE_START
G1 F6240
G1 X129.807 Y156.209 E-.77887
G1 X130.071 Y156.209 E-.08463
G1 X129.735 Y155.255 E-.32332
G1 X128.368 Y153.888 E-.61818
;WIPE_END
G1 E-.095 F2100
G1 Z.9 F7800
G1 X141.633 Y139.974
G1 Z.3
G1 E1.9 F2100
;TYPE:Perimeter
;WIDTH:0.679669
G1 F1800
G1 X141.661 Y139.986 E.00229
;WIDTH:0.677566
G1 X142.045 Y139.975 E.0294
;WIDTH:0.675
G1 X142.349 Y139.839 E.02536
G1 X142.601 Y139.578 E.02759
G1 X142.72 Y139.297 E.0233
G1 X142.745 Y139.085 E.01627
G1 X142.745 Y138.572 E.03906
G1 X144.582 Y138.572 E.13989
G1 X144.582 Y151.261 E.96645
G1 X142.745 Y151.261 E.13989
G1 X142.745 Y144.144 E.54208
G1 X142.713 Y143.455 E.05252
G1 X142.555 Y142.525 E.07184
G1 X142.378 Y141.981 E.04355
G1 X142.152 Y141.519 E.03916
G1 X141.862 Y141.099 E.03887
;WIDTH:0.675449
G1 X141.508 Y140.73 E.03898
;WIDTH:0.680497
G1 X141.132 Y140.447 E.03616
G1 X140.744 Y140.241 E.03373
;WIDTH:0.67774
G1 X140.162 Y140.033 E.04732
;WIDTH:0.675
G1 X139.835 Y139.975 E.02527
G1 X138.934 Y139.896 E.06892
G1 X138.148 Y139.978 E.06018
G1 X137.447 Y140.197 E.05589
G1 X136.972 Y140.468 E.04168
G1 X136.438 Y140.945 E.05452
G1 X136.121 Y141.39 E.0416
G1 X135.798 Y142.139 E.06211
G1 X135.591 Y143.101 E.07496
G1 X135.532 Y143.945 E.06439
G1 X135.529 Y151.359 E.56465
G1 X133.692 Y150.493 E.15463
G1 X133.702 Y142.581 E.60258
G1 X133.778 Y141.761 E.06275
G1 X133.925 Y141.05 E.05523
G1 X134.133 Y140.447 E.04864
G1 X134.397 Y139.944 E.0432
G1 X134.704 Y139.541 E.0386
